!!!COM: Vivaldi, Antonio Lucio
!!!CDT: 1678/03/04-1741/08/28
!!!OPR: 12 sonatas for two violins and basso continuo
!!!OTL: Sonata in D minor, op. @{OPS}, no. @{ONM}, "@{OTP}" (@{SCT})
!!!OTP: Folia
!!!OPS: 1
!!!ONM: 12
!!!SCT: RV 63
!!!SCA: Antonio Vivaldi: Thematisch-systematisches Verzeichnis seiner Werke (Ryom-Verzeichnis)
!!!OMD: Adagio
!!!key: d
**kern	**dynam	**fb	**kern	**dynam	**kern	**dynam
*part3	*	*	*part2	*	*part1	*
*staff3	*	*	*staff2	*	*staff1	*
*ICstr&ICklav	*	*	*ICstr	*	*ICstr	*
*Icello&Icemba	*	*	*Ivioln	*	*Ivioln	*
*	*	*	*I#2	*	*I#1	*
*I"Violoncello\nContinuo	*	*	*I"Violin 2	*	*I"Violin 1	*
*I'bc	*	*	*I'v2	*	*I'v1	*
*>[A,B,C,D,E,F,G,H,I,J,K,L,M,N,O,P,Q,R,S,T]	*>[A,B,C,D,E,F,G,H,I,J,K,L,M,N,O,P,Q,R,S,T]	*>[A,B,C,D,E,F,G,H,I,J,K,L,M,N,O,P,Q,R,S,T]	*>[A,B,C,D,E,F,G,H,I,J,K,L,M,N,O,P,Q,R,S,T]	*>[A,B,C,D,E,F,G,H,I,J,K,L,M,N,O,P,Q,R,S,T]	*>[A,B,C,D,E,F,G,H,I,J,K,L,M,N,O,P,Q,R,S,T]	*>[A,B,C,D,E,F,G,H,I,J,K,L,M,N,O,P,Q,R,S,T]
*>A	*>A	*>A	*>A	*>A	*>A	*>A
*clefF4	*	*	*clefG2	*	*clefG2	*
*k[b-]	*	*	*k[b-]	*	*k[b-]	*
*d:	*	*	*d:	*	*d:	*
*M3/4	*	*	*M3/4	*	*M3/4	*
*MM60	*	*	*MM60	*	*MM60	*
=1	=1	=1	=1	=1	=1	=1
4D\	.	.	4f/	.	4dd\	.
4.D\	.	.	4.f/	.	4.dd\	.
8D\	.	.	8f/	.	8dd\	.
=2	=2	=2	=2	=2	=2	=2
4AA/	.	#	4e/	.	4cc#X\	.
4.AA/	.	.	4.e/	.	4.cc#y\	.
8AA/	.	.	8e/	.	8cc#y\	.
=3	=3	=3	=3	=3	=3	=3
4D\	.	.	4f/	.	4dd\	.
4.D\	.	.	4.f/	.	4.dd\	.
8D\	.	.	8f/	.	8dd\	.
=4	=4	=4	=4	=4	=4	=4
4C/	.	.	4g/	.	4ee\	.
4.C/	.	.	4.g/	.	4.ee\	.
8C/	.	.	8g/	.	8ee\	.
=5	=5	=5	=5	=5	=5	=5
4F\	.	.	4a/	.	4ff\	.
4.F\	.	.	4.a/	.	4.ff\	.
8F\	.	.	8a/	.	8ff\	.
=6	=6	=6	=6	=6	=6	=6
4C/	.	.	4g/	.	4ee\	.
4.C#X/	.	6 5	4.g/	.	4.ee\	.
8C#y/	.	.	8g/	.	8ee\	.
=7	=7	=7	=7	=7	=7	=7
4D\	.	.	4f/	.	4dd\	.
4.BB-y/	.	.	4.f/	.	4.dd\	.
8GG/	.	7 5	8f/	.	8dd\	.
=8	=8	=8	=8	=8	=8	=8
4AA/	.	#	2.e/	.	2.cc#X\	.
8A\L	.	.	.	.	.	.
8G\	.	.	.	.	.	.
8F\	.	7 5#|	.	.	.	.
8E\J	.	.	.	.	.	.
!!LO:LB:g=original
=9	=9	=9	=9	=9	=9	=9
4D\	p	.	4f/	p	4dd\	p
4.D\	.	.	4.f/	.	4.dd\	.
8D\	.	.	8f/	.	8dd\	.
=10	=10	=10	=10	=10	=10	=10
4AA/	.	#	4e/	.	4cc#X\	.
4.AA/	.	.	4.e/	.	4.cc#y\	.
8AA/	.	.	8e/	.	8cc#y\	.
=11	=11	=11	=11	=11	=11	=11
4D\	.	.	4f/	.	4dd\	.
4.D\	.	.	4.f/	.	4.dd\	.
8D\	.	.	8f/	.	8dd\	.
=12	=12	=12	=12	=12	=12	=12
4C/	.	.	4g/	.	4ee\	.
4.C/	.	.	4.g/	.	4.ee\	.
8C/	.	.	8g/	.	8ee\	.
=13	=13	=13	=13	=13	=13	=13
4F\	.	.	4a/	.	4ff\	.
4.F\	.	.	4.a/	.	4.ff\	.
8F\	.	.	8a/	.	8ff\	.
=14	=14	=14	=14	=14	=14	=14
4C/	.	.	4g/	.	4ee\	.
4.C#X/	.	7 5	8g/L	.	8ee\L	.
.	.	.	8a/J	.	8ff\J	.
.	.	.	4b-y\	.	4gg\	.
8C#y/	.	.	.	.	.	.
=15	=15	=15	=15	=15	=15	=15
8D\L	.	.	8a/L	.	8ff\L	.
8G\J	.	.	16g/L	.	16ee\L	.
.	.	.	16f/JJ	.	16dd\JJ	.
4A\	.	#	4.e/	.	4.cc#X\	.
4AA/	.	.	.	.	.	.
.	.	.	8d/	.	8dd\	.
=16	=16	=16	=16	=16	=16	=16
2.D\;	.	.	2.d/;	.	2.dd\;	.
!!LO:LB:g=original
=17||	=17||	=17||	=17||	=17||	=17||	=17||
*>B	*>B	*>B	*>B	*>B	*>B	*>B
!!!OMD: 2. Andante
*MM120	*	*	*MM120	*	*MM120	*
4D\	.	.	4dd\	.	4ff\	.
4d\	.	.	8.dd\L	.	8.ff\L	.
.	.	.	16ee\k	.	16gg\k	.
4r	.	.	8.ff\	.	8.aa\	.
.	.	.	16dd\Jk	.	16ff\Jk	.
=18	=18	=18	=18	=18	=18	=18
8.A\L	.	#	4cc#X\	.	4ee\	.
16B-y\k	.	.	.	.	.	.
8.A\	.	.	4.cc#y\	.	4.ee\	.
16G\k	.	.	.	.	.	.
8.F\	.	7 5#|	.	.	.	.
.	.	.	8cc#y\	.	8ee\	.
16E\Jk	.	.	.	.	.	.
=19	=19	=19	=19	=19	=19	=19
4D\	.	.	4dd\	.	4ff\	.
4d\	.	.	8.dd\L	.	8.ff\L	.
.	.	.	16ee\k	.	16gg\k	.
4r	.	.	8.ff\	.	8.aa\	.
.	.	.	16dd\Jk	.	16ff\Jk	.
=20	=20	=20	=20	=20	=20	=20
8.c\L	.	.	4ee\	.	4gg\	.
16d\k	.	.	.	.	.	.
8.c\	.	.	4.ee\	.	4.gg\	.
16B-y\k	.	.	.	.	.	.
8.A\	.	7 5	.	.	.	.
.	.	.	8ee\	.	8gg\	.
16G\Jk	.	.	.	.	.	.
=21	=21	=21	=21	=21	=21	=21
4F\	.	.	4ff\	.	4aa\	.
4f\	.	.	8.ff\L	.	8.aa\L	.
.	.	.	16gg\k	.	16bb-y\k	.
4r	.	.	8.aa\	.	8.ccc\	.
.	.	.	16ff\Jk	.	16aa\Jk	.
=22	=22	=22	=22	=22	=22	=22
4c\	.	.	4ee\	.	4gg\	.
2c#X\	.	7 5	8.ee\L	.	8.gg\L	.
.	.	.	16ff\k	.	16aa\k	.
.	.	.	8.gg\	.	8.bb-y\	.
.	.	.	16ee\Jk	.	16gg\Jk	.
=23	=23	=23	=23	=23	=23	=23
4d\	.	.	4dd\	.	4ff\	.
2D\	.	.	8.dd\L	.	8.ff\L	.
.	.	.	16ee\k	.	16gg\k	.
.	.	.	8.ff\	.	8.aa\	.
.	.	.	16dd\Jk	.	16ff\Jk	.
=24	=24	=24	=24	=24	=24	=24
8.A\L	.	#	2.cc#X\	.	2.ee\	.
16B-y\k	.	.	.	.	.	.
8.A\	.	.	.	.	.	.
16G\k	.	.	.	.	.	.
8.F\	.	7 5#|	.	.	.	.
16E\Jk	.	.	.	.	.	.
!!LO:LB:g=original
=25	=25	=25	=25	=25	=25	=25
4D\	.	.	4dd\	.	4ff\	.
4d\	.	.	8.dd\L	.	8.ff\L	.
.	.	.	16ee\k	.	16gg\k	.
4r	.	.	8.ff\	.	8.aa\	.
.	.	.	16dd\Jk	.	16ff\Jk	.
=26	=26	=26	=26	=26	=26	=26
8.A\L	.	#	4cc#X\	.	4ee\	.
16B-y\k	.	.	.	.	.	.
8.A\	.	.	4.cc#y\	.	4.ee\	.
16G\k	.	.	.	.	.	.
8.F\	.	7 5#|	.	.	.	.
.	.	.	8cc#y\	.	8ee\	.
16E\Jk	.	.	.	.	.	.
=27	=27	=27	=27	=27	=27	=27
4D\	.	.	4dd\	.	4ff\	.
4d\	.	.	8.dd\L	.	8.ff\L	.
.	.	.	16ee\k	.	16gg\k	.
4r	.	.	8.ff\	.	8.aa\	.
.	.	.	16dd\Jk	.	16ff\Jk	.
=28	=28	=28	=28	=28	=28	=28
8.c\L	.	.	4ee\	.	4gg\	.
16d\k	.	.	.	.	.	.
8.c\	.	.	4.ee\	.	4.gg\	.
16B-y\k	.	.	.	.	.	.
8.A\	.	7 5	.	.	.	.
.	.	.	8ee\	.	8gg\	.
16G\Jk	.	.	.	.	.	.
=29	=29	=29	=29	=29	=29	=29
4F\	.	.	4ff\	.	4aa\	.
4f\	.	.	8.ff\L	.	8.aa\L	.
.	.	.	16gg\k	.	16bb-y\k	.
4r	.	.	8.aa\	.	8.ccc\	.
.	.	.	16ff\Jk	.	16aa\Jk	.
=30	=30	=30	=30	=30	=30	=30
4c\	.	.	4ee\	.	8.gg\L	.
.	.	.	.	.	16aa\Jk	.
8.c#X\L	.	7 5	8.ee\L	.	4.bb-y\	.
16d\k	.	.	16ff\k	.	.	.
8.e\	.	.	8.gg\	.	.	.
.	.	.	.	.	8bb-y\	.
16c#X\Jk	.	.	16ee\Jk	.	.	.
=31	=31	=31	=31	=31	=31	=31
8d\L	.	.	8ff\L	.	8aa\L	.
8G\J	.	.	16ee\L	.	16gg\L	.
.	.	.	16dd\JJ	.	16ff\JJ	.
4A\	.	#	4.cc#X\	.	4.ee\	.
4AA/	.	.	.	.	.	.
.	.	.	8dd\	.	8dd\	.
=32	=32	=32	=32	=32	=32	=32
2.D\;	.	.	2.dd\;	.	2.dd\;	.
!!LO:PB:g=original
=33||	=33||	=33||	=33||	=33||	=33||	=33||
*>C	*>C	*>C	*>C	*>C	*>C	*>C
!!!OMD: 3. Allegro
*MM150	*	*	*MM150	*	*MM150	*
4d\	.	.	4r	.	4d/	.
4r	.	.	4dd\	.	4ff\	.
4D\	.	.	4d/	.	4r	.
=34	=34	=34	=34	=34	=34	=34
4A\	.	#	4r	.	4c#X/	.
4r	.	.	4cc#X\	.	4ee\	.
4AA/	.	.	4c#X/	.	4r	.
=35	=35	=35	=35	=35	=35	=35
4D\	.	.	4r	.	4f/	.
4r	.	.	4dd\	.	4ff\	.
4d\	.	.	4d/	.	4r	.
=36	=36	=36	=36	=36	=36	=36
4c\	.	.	4r	.	4e/	.
4r	.	.	4ee\	.	4gg\	.
4C/	.	.	4e/	.	4r	.
=37	=37	=37	=37	=37	=37	=37
4F\	.	.	4r	.	4a/	.
4r	.	.	4ff\	.	4aa\	.
4F\	.	.	4f/	.	4r	.
=38	=38	=38	=38	=38	=38	=38
4c\	.	.	4r	.	4e/	.
4r	.	.	4ee\	.	4gg\	.
4c#X\	.	5	4e/	.	4r	.
=39	=39	=39	=39	=39	=39	=39
4d\	.	.	4r	.	4f/	.
4r	.	.	4dd\	.	4aa\	.
4GG/	.	.	4d/	.	4bb-y\	.
=40	=40	=40	=40	=40	=40	=40
4AA/	.	#	4c#X/	.	4ee\	.
4A\	.	.	4ee\	.	4cc#X\	.
4AA/	.	.	4r	.	4c#X/	.
!!LO:LB:g=original
=41	=41	=41	=41	=41	=41	=41
4D\	.	.	4d/	.	4r	.
4r	.	.	4ff\	.	4dd\	.
4D\	.	.	4r	.	4d/	.
=42	=42	=42	=42	=42	=42	=42
4A\	.	#	4c#X/	.	4r	.
4r	.	.	4ee\	.	4cc#X\	.
4AA/	.	.	4r	.	4c#X/	.
=43	=43	=43	=43	=43	=43	=43
4D\	.	.	4f/	.	4r	.
4r	.	.	4ff\	.	4dd\	.
4d\	.	.	4r	.	4d/	.
=44	=44	=44	=44	=44	=44	=44
4c\	.	.	4e/	.	4r	.
4r	.	.	4gg\	.	4ee\	.
4C/	.	.	4r	.	4e/	.
=45	=45	=45	=45	=45	=45	=45
4F\	.	.	4a/	.	4r	.
4r	.	.	4aa\	.	4ff\	.
4F\	.	.	4r	.	4f/	.
=46	=46	=46	=46	=46	=46	=46
4.C/	.	.	4e/	.	4r	.
.	.	.	4ee\	.	4gg\	.
8C#X/	.	5	.	.	.	.
4D\	.	.	4a/	.	4ff\	.
=47	=47	=47	=47	=47	=47	=47
4GG/	.	7 5	8ff\L	.	4bb-y\	.
.	.	.	8dd\J	.	.	.
2AA/	.	.	4.cc#X\	.	4.ee\	.
.	.	.	8dd\	.	8dd\	.
=48	=48	=48	=48	=48	=48	=48
2.D\;	.	.	2.dd\;	.	2.dd\;	.
!!LO:LB:g=original
=49||	=49||	=49||	=49||	=49||	=49||	=49||
*>D	*>D	*>D	*>D	*>D	*>D	*>D
!!!OMD: 4.
*MM154	*	*	*MM154	*	*MM154	*
4D\	.	.	8r	.	4r	.
.	.	.	8a/L	.	.	.
4d\	.	.	8f/	.	8r	.
.	.	.	8d/J	.	8f/L	.
4D\	.	.	4ff\	.	8a/	.
.	.	.	.	.	8dd/J	.
=50	=50	=50	=50	=50	=50	=50
4AA/	.	#	8r	.	4cc#X\	.
.	.	.	8a/L	.	.	.
4A\	.	.	8e/	.	8r	.
.	.	.	8c#X/J	.	8e/L	.
4AA/	.	.	4ee\	.	8a/	.
.	.	.	.	.	8cc#X/J	.
=51	=51	=51	=51	=51	=51	=51
4D\	.	.	8r	.	4dd\	.
.	.	.	8a/L	.	.	.
4d\	.	.	8f/	.	8r	.
.	.	.	8d/J	.	8f/L	.
4D\	.	.	4ff\	.	8a/	.
.	.	.	.	.	8dd/J	.
=52	=52	=52	=52	=52	=52	=52
4C/	.	.	8r	.	4ee\	.
.	.	.	8cc/L	.	.	.
4c\	.	.	8g/	.	8r	.
.	.	.	8e/J	.	8cc\L	.
4C/	.	.	4gg\	.	8ee\	.
.	.	.	.	.	8gg\J	.
=53	=53	=53	=53	=53	=53	=53
4F\	.	.	8r	.	4ff\	.
.	.	.	8cc/L	.	.	.
4f\	.	.	8a/	.	8r	.
.	.	.	8f/J	.	8a\L	.
4F\	.	.	4aa\	.	8cc\	.
.	.	.	.	.	8ff\J	.
=54	=54	=54	=54	=54	=54	=54
4C/	.	.	8r	.	4ee\	.
.	.	.	8cc/L	.	.	.
4E\	.	6#/	8g/	.	8r	.
.	.	.	8e/J	.	8cc#X\L	.
4C#X/	.	5	4gg\	.	8ee\	.
.	.	.	.	.	8gg\J	.
=55	=55	=55	=55	=55	=55	=55
4D\	.	.	8r	.	4ff\	.
.	.	.	8a/L	.	.	.
4B-y\	.	.	8f/	.	8r	.
.	.	.	8d/J	.	8dd\L	.
4BB-y/	.	5	4dd\	.	8ff\	.
.	.	6	.	.	8dd\J	.
=56	=56	=56	=56	=56	=56	=56
4AA/	.	#	8r	.	4cc#X\	.
.	.	.	8ee\	.	.	.
4A\	.	.	4cc#X\	.	8r	.
.	.	.	.	.	8ee\	.
4AA/	.	.	8r	.	4a/	.
.	.	.	8cc#y\	.	.	.
!!LO:LB:g=original
=57	=57	=57	=57	=57	=57	=57
4D\	.	.	4dd\	.	8r	.
.	.	.	.	.	8a/L	.
4d\	.	.	8r	.	8f/	.
.	.	.	8f/L	.	8d/J	.
4D\	.	.	8a/	.	4ff\	.
.	.	.	8dd/J	.	.	.
=58	=58	=58	=58	=58	=58	=58
4AA/	.	#	4cc#X\	.	8r	.
.	.	.	.	.	8a/L	.
4A\	.	.	8r	.	8e/	.
.	.	.	8e/L	.	8c#X/J	.
4AA/	.	.	8a/	.	4ee\	.
.	.	.	8cc#X/J	.	.	.
=59	=59	=59	=59	=59	=59	=59
4D\	.	.	4dd\	.	8r	.
.	.	.	.	.	8a/L	.
4d\	.	.	8r	.	8f/	.
.	.	.	8f/L	.	8d/J	.
4D\	.	.	8a/	.	4ff\	.
.	.	.	8dd/J	.	.	.
=60	=60	=60	=60	=60	=60	=60
4C/	.	.	4ee\	.	8r	.
.	.	.	.	.	8cc/L	.
4c\	.	.	8r	.	8g/	.
.	.	.	8cc\L	.	8e/J	.
4C/	.	.	8ee\	.	4gg\	.
.	.	.	8gg\J	.	.	.
=61	=61	=61	=61	=61	=61	=61
4F\	.	.	4ff\	.	8r	.
.	.	.	.	.	8cc/L	.
4f\	.	.	8r	.	8a/	.
.	.	.	8a\L	.	8f/J	.
4F\	.	.	8cc\	.	4aa\	.
.	.	.	8ff\J	.	.	.
=62	=62	=62	=62	=62	=62	=62
8G\L	.	6-r	(8ee-X\L	.	4gg\	.
8A\	.	#	8cc#X\J)	.	.	.
8B-y\	.	.	[2dd\	.	4ff\	.
8A\	.	.	.	.	.	.
8G\	.	6 5	.	.	4ee\	.
8B-y\J	.	.	.	.	.	.
=63	=63	=63	=63	=63	=63	=63
4A\	.	6 4	8dd\L]	.	8ff\L	.
.	.	.	8ee\J	.	8gg\J	.
2AA/	.	5 #	4.cc#X\	.	4.ee\	.
.	.	.	8dd\	.	8dd\	.
=64	=64	=64	=64	=64	=64	=64
2.D\;	.	.	2.dd\;	.	2.dd\;	.
!!LO:PB:g=original
=65||	=65||	=65||	=65||	=65||	=65||	=65||
*>E	*>E	*>E	*>E	*>E	*>E	*>E
!!!OMD: 5.
*MM150	*	*	*MM150	*	*MM150	*
8D\L	.	.	16r	.	2.r	.
.	.	.	16dd\LL	.	.	.
8E\	.	.	16cc\	.	.	.
.	.	.	16b-y\JJ	.	.	.
8F\	.	6	16a/LL	.	.	.
.	.	.	16g/	.	.	.
8D\	.	.	16f/	.	.	.
.	.	.	16e/JJ	.	.	.
8F\	.	6	8d/L	.	.	.
8G\J	.	.	8dd/J	.	.	.
=66	=66	=66	=66	=66	=66	=66
8AA/L	.	#	4cc#X\	.	16r	.
.	.	.	.	.	16aa\LL	.
8BBn/	.	.	.	.	16gg\	.
.	.	.	.	.	16ff\JJ	.
8C#X/	.	6	4r	.	16ee\LL	.
.	.	.	.	.	16dd\	.
8BBn/	.	.	.	.	16cc#X\	.
.	.	.	.	.	16bn\JJ	.
8C#X/	.	6	4r	.	8a\L	.
8AA/J	.	.	.	.	8aa\J	.
=67	=67	=67	=67	=67	=67	=67
8D\L	.	.	16r	.	4ff\	.
.	.	.	16dd\LL	.	.	.
8E\	.	.	16cc\	.	.	.
.	.	.	16b-y\JJ	.	.	.
8F\	.	6	16a/LL	.	4r	.
.	.	.	16g/	.	.	.
8D\	.	.	16f/	.	.	.
.	.	.	16e/JJ	.	.	.
8F\	.	6	8d/L	.	4r	.
8G\J	.	.	8dd/J	.	.	.
=68	=68	=68	=68	=68	=68	=68
8C\L	.	.	4ee\	.	16r	.
.	.	.	.	.	16ccc\LL	.
8D\	.	.	.	.	16bb-y\	.
.	.	.	.	.	16aa\JJ	.
8E\	.	6	4r	.	16gg\LL	.
.	.	.	.	.	16ff\	.
8D\	.	.	.	.	16ee\	.
.	.	.	.	.	16dd\JJ	.
8E\	.	6	4r	.	8cc\L	.
8C\J	.	.	.	.	8ccc\J	.
=69	=69	=69	=69	=69	=69	=69
8F\L	.	.	16r	.	4aa\	.
.	.	.	16ff\LL	.	.	.
8G\	.	.	16ee\	.	.	.
.	.	.	16dd\JJ	.	.	.
8A\	.	6	16cc/LL	.	4r	.
.	.	.	16b-y/	.	.	.
8F\	.	.	16a/	.	.	.
.	.	.	16g/JJ	.	.	.
8A\	.	6	8f\L	.	4r	.
8Bn\J	.	.	8ff\J	.	.	.
!!LO:LB:g=original
=70	=70	=70	=70	=70	=70	=70
4c\	.	.	4ee\	.	16r	.
.	.	.	.	.	16aa\LL	.
.	.	.	.	.	16gg\	.
.	.	.	.	.	16ff\JJ	.
4.c#X\	.	6	4r	.	16ee\LL	.
.	.	.	.	.	16dd\	.
.	.	.	.	.	16cc#X\	.
.	.	.	.	.	16bn\JJ	.
.	.	.	4r	.	8a\L	.
8c#y\	.	.	.	.	8aa\J	.
=71	=71	=71	=71	=71	=71	=71
8d\L	.	.	16r	.	4ff\	.
.	.	.	16dd\LL	.	.	.
8D\	.	.	16cc\	.	.	.
.	.	.	16b-y\JJ	.	.	.
8F\	.	6	16a/LL	.	4r	.
.	.	.	16g/	.	.	.
8D\	.	.	16f/	.	.	.
.	.	.	16e/JJ	.	.	.
8F\	.	6	8d/L	.	4r	.
8G\J	.	.	8dd/J	.	.	.
=72	=72	=72	=72	=72	=72	=72
16A\LL	.	#	4cc#X\	.	4ee\	.
16A\	.	.	.	.	.	.
16G\	.	.	.	.	.	.
16F\JJ	.	.	.	.	.	.
16E/LL	.	6#/	4.ee\	.	4.gg\	.
16D/	.	.	.	.	.	.
16C#X/	.	.	.	.	.	.
16BBn/JJ	.	.	.	.	.	.
8AA/L	.	7 #	.	.	.	.
8C#X/J	.	.	8ee\	.	8gg\	.
=73	=73	=73	=73	=73	=73	=73
8D\L	.	.	16a\LL	.	4ff\	.
.	.	.	16dd\	.	.	.
8E\	.	.	16cc\	.	.	.
.	.	.	16b-y\JJ	.	.	.
8F\	.	6	16a/LL	.	4r	.
.	.	.	16g/	.	.	.
8D\	.	.	16f/	.	.	.
.	.	.	16e/JJ	.	.	.
8F\	.	6	8d/L	.	4r	.
8G\J	.	.	8dd/J	.	.	.
=74	=74	=74	=74	=74	=74	=74
8AA/L	.	#	4cc#X\	.	16r	.
.	.	.	.	.	16aa\LL	.
8BBn/	.	.	.	.	16gg\	.
.	.	.	.	.	16ff\JJ	.
8C#X/	.	6	4r	.	16ee\LL	.
.	.	.	.	.	16dd\	.
8BBn/	.	.	.	.	16cc#X\	.
.	.	.	.	.	16bn\JJ	.
8C#y/	.	6	4r	.	8a\L	.
8AA/J	.	.	.	.	8aa\J	.
!!LO:LB:g=original
=75	=75	=75	=75	=75	=75	=75
8D\L	.	.	16r	.	4ff\	.
.	.	.	16dd\LL	.	.	.
8E\	.	.	16cc\	.	.	.
.	.	.	16b-y\JJ	.	.	.
8F\	.	6	16a/LL	.	4r	.
.	.	.	16g/	.	.	.
8D\	.	.	16f/	.	.	.
.	.	.	16e/JJ	.	.	.
8F\	.	6	8d/L	.	4r	.
8G\J	.	.	8dd/J	.	.	.
=76	=76	=76	=76	=76	=76	=76
8C\L	.	.	4ee\	.	16r	.
.	.	.	.	.	16ccc\LL	.
8D\	.	.	.	.	16bb-y\	.
.	.	.	.	.	16aa\JJ	.
8E\	.	6	4r	.	16gg\LL	.
.	.	.	.	.	16ff\	.
8D\	.	.	.	.	16ee\	.
.	.	.	.	.	16dd\JJ	.
8E\	.	6	4r	.	8cc\L	.
8C\J	.	.	.	.	8ccc\J	.
=77	=77	=77	=77	=77	=77	=77
8F\L	.	.	16r	.	4aa\	.
.	.	.	16ff\LL	.	.	.
8G\	.	.	16ee\	.	.	.
.	.	.	16dd\JJ	.	.	.
8A\	.	6	16cc/LL	.	4r	.
.	.	.	16b-y/	.	.	.
8F\	.	.	16a/	.	.	.
.	.	.	16g/JJ	.	.	.
8A\	.	6	8f\L	.	4r	.
8Bn\J	.	.	8ff\J	.	.	.
=78	=78	=78	=78	=78	=78	=78
4c\	.	.	4ee\	.	16r	.
.	.	.	.	.	16aa\LL	.
.	.	.	.	.	16gg\	.
.	.	.	.	.	16ff\JJ	.
4.c#X\	.	6 5	4.ee\	.	16ee\LL	.
.	.	.	.	.	16dd\	.
.	.	.	.	.	16cc#X\	.
.	.	.	.	.	16bn\JJ	.
.	.	.	.	.	8a\L	.
8c#y\	.	.	8ee\	.	8gg\J	.
=79	=79	=79	=79	=79	=79	=79
8d\L	.	.	8a/L	.	8ff\L	.
8G\J	.	.	8b-y/J	.	16ee\L	.
.	.	.	.	.	16dd\JJ	.
4A\	.	#	4.e/	.	4.cc#X\	.
4AA/	.	.	.	.	.	.
.	.	.	8a/	.	8dd\	.
=80	=80	=80	=80	=80	=80	=80
2.D\	.	.	2.f/	.	2.dd\	.
!!LO:LB:g=original
=81||	=81||	=81||	=81||	=81||	=81||	=81||
*>F	*>F	*>F	*>F	*>F	*>F	*>F
!!!OMD: 6.
*MM152	*	*	*MM152	*	*MM152	*
16D\LL	.	.	8dd/L	.	2.r	.
16F\	.	.	.	.	.	.
16G\	.	.	8a/	.	.	.
16A\JJ	.	.	.	.	.	.
16D\LL	.	.	8f/	.	.	.
16F\	.	.	.	.	.	.
16G\	.	.	8d/	.	.	.
16A\JJ	.	.	.	.	.	.
16D\LL	.	.	8a/	.	.	.
16F\	.	.	.	.	.	.
16E\	.	.	8dd/J	.	.	.
16D\JJ	.	.	.	.	.	.
=82	=82	=82	=82	=82	=82	=82
16A\LL	.	#	4cc#X\	.	8aa\L	.
16c#X\	.	.	.	.	.	.
16d\	.	.	.	.	8ee\	.
16e\JJ	.	.	.	.	.	.
16A\LL	.	.	4.cc#y\	.	8cc#X\	.
16c#X\	.	.	.	.	.	.
16d\	.	.	.	.	8a\	.
16e\JJ	.	.	.	.	.	.
16A\LL	.	7 #	.	.	8ee\	.
16c#X\	.	.	.	.	.	.
16Bn\	.	.	8cc#y\	.	8gg\J	.
16A\JJ	.	.	.	.	.	.
=83	=83	=83	=83	=83	=83	=83
16D\LL	.	.	8dd/L	.	4ff\	.
16F\	.	.	.	.	.	.
16G\	.	.	8a/	.	.	.
16A\JJ	.	.	.	.	.	.
16D\LL	.	.	8f/	.	4.ff\	.
16F\	.	.	.	.	.	.
16G\	.	.	8d/	.	.	.
16A\JJ	.	.	.	.	.	.
16D\LL	.	.	8a/	.	.	.
16F\	.	.	.	.	.	.
16E\	.	.	8dd/J	.	8ff\	.
16D\JJ	.	.	.	.	.	.
=84	=84	=84	=84	=84	=84	=84
16C\LL	.	.	4ee\	.	8gg\L	.
16E\	.	.	.	.	.	.
16F\	.	.	.	.	8ee\	.
16G\JJ	.	.	.	.	.	.
16C\LL	.	.	4.ee\	.	8cc\	.
16E\	.	.	.	.	.	.
16F\	.	.	.	.	8ee\	.
16G\JJ	.	.	.	.	.	.
16C/LL	.	7	.	.	8gg\	.
16E/	.	.	.	.	.	.
16D/	.	.	8ee\	.	8bb-y\J	.
16C/JJ	.	.	.	.	.	.
=85	=85	=85	=85	=85	=85	=85
16F\LL	.	.	8ff\L	.	4.aa\	.
16A\	.	.	.	.	.	.
16B-y\	.	.	8cc\	.	.	.
16c\JJ	.	.	.	.	.	.
16F\LL	.	.	8a\	.	.	.
16A\	.	.	.	.	.	.
16B-y\	.	.	8f\J	.	8aa\	.
16c\JJ	.	.	.	.	.	.
16F\LL	.	.	4ff\	.	8cc\L	.
16A\	.	.	.	.	.	.
16G\	.	.	.	.	8aa\J	.
16F\JJ	.	.	.	.	.	.
!!LO:PB:g=original
=86	=86	=86	=86	=86	=86	=86
16c\LL	.	.	8ee/L	.	4.gg\	.
16c\	.	.	.	.	.	.
16d\	.	.	8cc/	.	.	.
16e\JJ	.	.	.	.	.	.
16c#X\LL	.	6 5	8g/	.	.	.
16c#y\	.	.	.	.	.	.
16d\	.	.	8e/J	.	8gg\	.
16e\JJ	.	.	.	.	.	.
16A\LL	.	7 #	4ee\	.	8cc#X\L	.
16c#X\	.	.	.	.	.	.
16Bn\	.	.	.	.	8gg\J	.
16A\JJ	.	.	.	.	.	.
=87	=87	=87	=87	=87	=87	=87
16d\LL	.	.	8dd\L	.	8ff\L	.
16F\	.	.	.	.	.	.
16G\	.	.	8a\J	.	8dd\J	.
16A\JJ	.	.	.	.	.	.
16D\LL	.	.	4.ff\	.	4.aa\	.
16F\	.	.	.	.	.	.
16G\	.	.	.	.	.	.
16A\JJ	.	.	.	.	.	.
16D\LL	.	.	.	.	.	.
16F\	.	.	.	.	.	.
16E\	.	.	8gg\	.	8bb-y\	.
16D\JJ	.	.	.	.	.	.
=88	=88	=88	=88	=88	=88	=88
16A\LL	.	#	4ee\	.	8cc#X\L	.
16C#X\	.	.	.	.	.	.
16D\	.	.	.	.	8aa\	.
16E\JJ	.	.	.	.	.	.
16AA/LL	.	.	4.cc#X\	.	(8aa\	.
16C#X/	.	.	.	.	.	.
16D/	.	.	.	.	8gg\)	.
16E/JJ	.	.	.	.	.	.
16AA/LL	.	7 #	.	.	(8gg\	.
16C#X/	.	.	.	.	.	.
16BBn/	.	.	8cc#y\	.	8ff\J)	.
16AA/JJ	.	.	.	.	.	.
=89	=89	=89	=89	=89	=89	=89
16D\LL	.	.	8dd/L	.	4ff\	.
16F\	.	.	.	.	.	.
16G\	.	.	8a/	.	.	.
16A\JJ	.	.	.	.	.	.
16D\LL	.	.	8f/	.	4r	.
16F\	.	.	.	.	.	.
16G\	.	.	8d/	.	.	.
16A\JJ	.	.	.	.	.	.
16D\LL	.	.	8a/	.	4r	.
16F\	.	.	.	.	.	.
16E\	.	.	8dd/J	.	.	.
16D\JJ	.	.	.	.	.	.
=90	=90	=90	=90	=90	=90	=90
16A\LL	.	#	4cc#X\	.	8aa\L	.
16c#X\	.	.	.	.	.	.
16d\	.	.	.	.	8ee\	.
16e\JJ	.	.	.	.	.	.
16A\LL	.	.	4.cc#y\	.	8cc#X\	.
16c#X\	.	.	.	.	.	.
16d\	.	.	.	.	8a\	.
16e\JJ	.	.	.	.	.	.
16A\LL	.	7 #	.	.	8ee\	.
16c#X\	.	.	.	.	.	.
16Bn\	.	.	8cc#y\	.	8gg\J	.
16A\JJ	.	.	.	.	.	.
!!LO:LB:g=original
=91	=91	=91	=91	=91	=91	=91
16D\LL	.	.	8dd/L	.	4ff\	.
16F\	.	.	.	.	.	.
16G\	.	.	8a/	.	.	.
16A\JJ	.	.	.	.	.	.
16D\LL	.	.	8f/	.	4.ff\	.
16F\	.	.	.	.	.	.
16G\	.	.	8d/	.	.	.
16A\JJ	.	.	.	.	.	.
16D\LL	.	.	8a/	.	.	.
16F\	.	.	.	.	.	.
16E\	.	.	8dd/J	.	8ff\	.
16D\JJ	.	.	.	.	.	.
=92	=92	=92	=92	=92	=92	=92
16C\LL	.	.	4ee\	.	8gg\L	.
16E\	.	.	.	.	.	.
16F\	.	.	.	.	8ee\	.
16G\JJ	.	.	.	.	.	.
16C\LL	.	.	4.ee\	.	8cc\	.
16E\	.	.	.	.	.	.
16F\	.	.	.	.	8ee\	.
16G\JJ	.	.	.	.	.	.
16C/LL	.	7	.	.	8gg\	.
16E/	.	.	.	.	.	.
16D/	.	.	8ee\	.	8bb-y\J	.
16C/JJ	.	.	.	.	.	.
=93	=93	=93	=93	=93	=93	=93
16F\LL	.	.	8ff\L	.	4.aa\	.
16A\	.	.	.	.	.	.
16B-y\	.	.	8cc\	.	.	.
16c\JJ	.	.	.	.	.	.
16F\LL	.	.	8a\	.	.	.
16A\	.	.	.	.	.	.
16B-y\	.	.	8f\J	.	8aa\	.
16c\JJ	.	.	.	.	.	.
16F\LL	.	.	4ff\	.	8cc\L	.
16A\	.	.	.	.	.	.
16G\	.	.	.	.	8aa\J	.
16F\JJ	.	.	.	.	.	.
=94	=94	=94	=94	=94	=94	=94
16c\LL	.	.	8ee/L	.	4.gg\	.
16c\	.	.	.	.	.	.
16d\	.	.	8cc/	.	.	.
16e\JJ	.	.	.	.	.	.
16c#X\LL	.	6 5	8g/	.	.	.
16c#y\	.	.	.	.	.	.
16d\	.	.	8e/J	.	8gg\	.
16e\JJ	.	.	.	.	.	.
16A\LL	.	7 #	4ee\	.	8cc#X\L	.
16c#X\	.	.	.	.	.	.
16Bn\	.	.	.	.	8gg\J	.
16A\JJ	.	.	.	.	.	.
=95	=95	=95	=95	=95	=95	=95
8d\L	.	.	8dd\L	.	8ff\L	.
8A\	.	3	8gg\J	.	8cc#X\	.
8B-y\	.	5	4ff\	.	8dd\	.
8G\	.	.	.	.	8f\J	.
8A\	.	#	4ee\	.	8A/L	.
8AA\J	.	.	.	.	8cc#y/J	.
=96	=96	=96	=96	=96	=96	=96
2.D\;	.	.	2.dd\;	.	2.dd\;	.
!!LO:LB:g=original
=97||	=97||	=97||	=97||	=97||	=97||	=97||
*>G	*>G	*>G	*>G	*>G	*>G	*>G
!!!OMD: 7.
*MM150	*	*	*MM150	*	*MM150	*
8d\	.	.	16dd/LL	.	4r	.
.	.	.	16a/	.	.	.
4D\	.	.	16f/	.	.	.
.	.	.	16a/JJ	.	.	.
.	.	.	4d/	.	16r	.
.	.	.	.	.	16ff\LL	.
4F\	.	6	.	.	16aa\	.
.	.	.	.	.	16ff\JJ	.
.	.	.	4r	.	16dd\LL	.
.	.	.	.	.	16a\	.
8D\	.	.	.	.	16aa\	.
.	.	.	.	.	16ff\JJ	.
=98	=98	=98	=98	=98	=98	=98
8A\	.	.	16cc#X/LL	.	4ee\	.
.	.	.	16a/	.	.	.
4AA/	.	.	16e/	.	.	.
.	.	.	16a/JJ	.	.	.
.	.	.	4c#X/	.	16r	.
.	.	.	.	.	16ee\LL	.
4C#X/	.	6	.	.	16aa\	.
.	.	.	.	.	16ee\JJ	.
.	.	.	4r	.	16cc#X\LL	.
.	.	.	.	.	16a\	.
8AA/	.	.	.	.	16gg\	.
.	.	.	.	.	16ee\JJ	.
=99	=99	=99	=99	=99	=99	=99
8d\	.	.	16dd/LL	.	4ff\	.
.	.	.	16a/	.	.	.
4D\	.	.	16f/	.	.	.
.	.	.	16a/JJ	.	.	.
.	.	.	4d/	.	16r	.
.	.	.	.	.	16ff\LL	.
4F\	.	6	.	.	16aa\	.
.	.	.	.	.	16ff\JJ	.
.	.	.	4r	.	16dd\LL	.
.	.	.	.	.	16a\	.
8D\	.	.	.	.	16aa\	.
.	.	.	.	.	16ff\JJ	.
=100	=100	=100	=100	=100	=100	=100
8cn\	.	.	16ee\LL	.	4gg\	.
.	.	.	16cc\	.	.	.
4C/	.	.	16g\	.	.	.
.	.	.	16cc\JJ	.	.	.
.	.	.	4e/	.	16r	.
.	.	.	.	.	16gg\LL	.
4E\	.	6	.	.	16ccc\	.
.	.	.	.	.	16gg\JJ	.
.	.	.	4r	.	16ee\LL	.
.	.	.	.	.	16cc\	.
8C/	.	.	.	.	16ccc\	.
.	.	.	.	.	16gg\JJ	.
=101	=101	=101	=101	=101	=101	=101
8FF/	.	.	16ff\LL	.	4aa\	.
.	.	.	16cc\	.	.	.
4F\	.	.	16a\	.	.	.
.	.	.	16cc\JJ	.	.	.
.	.	.	4f/	.	16r	.
.	.	.	.	.	16aa\LL	.
4A\	.	6	.	.	16ccc\	.
.	.	.	.	.	16aa\JJ	.
.	.	.	4r	.	16ff\LL	.
.	.	.	.	.	16cc\	.
8F\	.	.	.	.	16ccc\	.
.	.	.	.	.	16aa\JJ	.
!!LO:LB:g=original
=102	=102	=102	=102	=102	=102	=102
8c\	.	.	16ee\LL	.	4gg\	.
.	.	.	16cc\	.	.	.
4C/	.	.	16g\	.	.	.
.	.	.	16cc\JJ	.	.	.
.	.	.	4e/	.	16r	.
.	.	.	.	.	16bb-y\LL	.
4E\	.	6#/	.	.	16gg\	.
.	.	.	.	.	16ee\JJ	.
.	.	.	4r	.	16cc#X\LL	.
.	.	.	.	.	16ee\	.
8C#X/	.	6 5	.	.	16gg\	.
.	.	.	.	.	16ee\JJ	.
=103	=103	=103	=103	=103	=103	=103
8D\	.	.	16dd/LL	.	4ff\	.
.	.	.	16a/	.	.	.
4d\	.	.	16f/	.	.	.
.	.	.	16a/JJ	.	.	.
.	.	.	4d/	.	16r	.
.	.	.	.	.	16ff\LL	.
4f\	.	6	.	.	16aa\	.
.	.	.	.	.	16ff\JJ	.
.	.	.	4r	.	16dd\LL	.
.	.	.	.	.	16a\	.
8d\	.	.	.	.	16ff\	.
.	.	.	.	.	16dd\JJ	.
=104	=104	=104	=104	=104	=104	=104
8A\	.	#	16ee\LL	.	8cc#X\L	.
.	.	.	16aa\	.	.	.
4AA/	.	.	16ee\	.	8a\J	.
.	.	.	16cc#X\JJ	.	.	.
.	.	.	4.a/	.	16ee\LL	.
.	.	.	.	.	16aa\	.
4C#X/	.	6	.	.	16ee\	.
.	.	.	.	.	16cc#X\JJ	.
.	.	.	.	.	16a\LL	.
.	.	.	.	.	16ee\	.
8AA/	.	.	8cc#X\	.	16aa\	.
.	.	.	.	.	16gg\JJ	.
=105	=105	=105	=105	=105	=105	=105
8d\	.	.	16dd/LL	.	4ff\	.
.	.	.	16a/	.	.	.
4D\	.	.	16f/	.	.	.
.	.	.	16a/JJ	.	.	.
.	.	.	4d/	.	16r	.
.	.	.	.	.	16ff\LL	.
4F\	.	6	.	.	16aa\	.
.	.	.	.	.	16ff\JJ	.
.	.	.	4r	.	16dd\LL	.
.	.	.	.	.	16a\	.
8D\	.	.	.	.	16aa\	.
.	.	.	.	.	16ff\JJ	.
=106	=106	=106	=106	=106	=106	=106
8A\	.	#	16cc#X/LL	.	4ee\	.
.	.	.	16a/	.	.	.
4AA/	.	.	16e/	.	.	.
.	.	.	16a/JJ	.	.	.
.	.	.	4c#X/	.	16r	.
.	.	.	.	.	16ee\LL	.
4C#X/	.	6	.	.	16gg\	.
.	.	.	.	.	16ee\JJ	.
.	.	.	4r	.	16cc#X\LL	.
.	.	.	.	.	16a\	.
8AA/	.	.	.	.	16gg\	.
.	.	.	.	.	16ee\JJ	.
!!LO:PB:g=original
=107	=107	=107	=107	=107	=107	=107
8d\	.	.	16dd/LL	.	4ff\	.
.	.	.	16a/	.	.	.
4D\	.	.	16f/	.	.	.
.	.	.	16a/JJ	.	.	.
.	.	.	4d/	.	16r	.
.	.	.	.	.	16ff\LL	.
4F\	.	6	.	.	16aa\	.
.	.	.	.	.	16ff\JJ	.
.	.	.	4r	.	16dd\LL	.
.	.	.	.	.	16a\	.
8D\	.	.	.	.	16aa\	.
.	.	.	.	.	16ff\JJ	.
=108	=108	=108	=108	=108	=108	=108
8cn\	.	.	16ee\LL	.	4gg\	.
.	.	.	16cc\	.	.	.
4C/	.	.	16g\	.	.	.
.	.	.	16cc\JJ	.	.	.
.	.	.	4e/	.	16r	.
.	.	.	.	.	16gg\LL	.
4E\	.	6	.	.	16ccc\	.
.	.	.	.	.	16gg\JJ	.
.	.	.	4r	.	16ee\LL	.
.	.	.	.	.	16cc\	.
8C/	.	.	.	.	16ccc\	.
.	.	.	.	.	16gg\JJ	.
=109	=109	=109	=109	=109	=109	=109
8FF/	.	.	16ff\LL	.	4aa\	.
.	.	.	16cc\	.	.	.
4F\	.	.	16a\	.	.	.
.	.	.	16cc\JJ	.	.	.
.	.	.	4f/	.	16r	.
.	.	.	.	.	16aa\LL	.
4A\	.	6	.	.	16ccc\	.
.	.	.	.	.	16aa\JJ	.
.	.	.	4r	.	16ff\LL	.
.	.	.	.	.	16cc\	.
8F\	.	.	.	.	16ccc\	.
.	.	.	.	.	16aa\JJ	.
=110	=110	=110	=110	=110	=110	=110
8c\	.	.	16ee\LL	.	4gg\	.
.	.	.	16cc\	.	.	.
4C/	.	.	16g\	.	.	.
.	.	.	16cc\JJ	.	.	.
.	.	.	4e/	.	16r	.
.	.	.	.	.	16bb-y\LL	.
4E\	.	6#/	.	.	16gg\	.
.	.	.	.	.	16ee\JJ	.
.	.	.	8r	.	16cc#X\LL	.
.	.	.	.	.	16a\	.
8C#X/	.	6 5	8ee\	.	16gg\	.
.	.	.	.	.	16ee\JJ	.
=111	=111	=111	=111	=111	=111	=111
8D\	.	.	8a/L	.	8ff\L	.
4G\	.	6	8b-y/J	.	16ee\L	.
.	.	.	.	.	16dd\JJ	.
.	.	6 4#| 3	8e/	.	8cc#X\L	.
16F\LL	.	6	4a/	.	8dd\J	.
16G\JJ	.	.	.	.	.	.
8A\L	.	#	.	.	8e/L	.
8AA\J	.	.	8g/	.	8cc#X/J	.
=112	=112	=112	=112	=112	=112	=112
2.D\;	.	.	2.f/;	.	2.d/;	.
!!LO:LB:g=original
=113||	=113||	=113||	=113||	=113||	=113||	=113||
*>H	*>H	*>H	*>H	*>H	*>H	*>H
!!!OMD: 8.
*MM152	*	*	*MM152	*	*MM152	*
4D\	.	.	4f/	.	(8dd\L	.
.	.	.	.	.	8a\)	.
4.D\	.	.	8r	.	(8ff\	.
.	.	.	8f\L	.	8dd\)	.
.	.	.	8ff\	.	(8aa\	.
8D\	.	.	8f\J	.	8dd\J)	.
=114	=114	=114	=114	=114	=114	=114
4AA/	.	#	4e/	.	(8cc#X\L	.
.	.	.	.	.	8a\)	.
4.AA/	.	.	8r	.	(8ee\	.
.	.	.	8e/L	.	8cc#X\)	.
.	.	.	8ee/	.	(8aa\	.
8AA/	.	.	8e/J	.	8cc#X\J)	.
=115	=115	=115	=115	=115	=115	=115
4D\	.	.	4f/	.	(8dd\L	.
.	.	.	.	.	8a\)	.
4.D\	.	.	8r	.	(8ff\	.
.	.	.	8f\L	.	8dd\)	.
.	.	.	8ff\	.	(8aa\	.
8D\	.	.	8f\J	.	8dd\J)	.
=116	=116	=116	=116	=116	=116	=116
4C/	.	.	4g/	.	(8ee\L	.
.	.	.	.	.	8cc\)	.
4.C/	.	.	8r	.	(8gg\	.
.	.	.	8g\L	.	8ee\)	.
.	.	.	8gg\	.	(8ccc\	.
8C/	.	.	8g\J	.	8ee\J)	.
=117	=117	=117	=117	=117	=117	=117
4F\	.	.	4a/	.	(8ff\L	.
.	.	.	.	.	8cc\)	.
4.F\	.	.	8r	.	(8aa\	.
.	.	.	8a\L	.	8ff\)	.
.	.	.	8aa\	.	(8ccc\	.
8F\	.	.	8a\J	.	8ff\J)	.
=118	=118	=118	=118	=118	=118	=118
4C/	.	.	4g/	.	(8ee\L	.
.	.	.	.	.	8cc\)	.
4.C#X/	.	7 5	8r	.	(8gg\	.
.	.	.	8g\L	.	8ee\)	.
.	.	.	8gg\	.	(8bb-y\	.
8C#y/	.	.	8g\J	.	8ee\J)	.
=119	=119	=119	=119	=119	=119	=119
4D\	.	.	4f/	.	(8aa\L	.
.	.	.	.	.	8a\)	.
4BB-y/	.	.	8r	.	(8dd\	.
.	.	.	8dd\L	.	8ff\)	.
4GG/	.	6 5	8gg\	.	(8ee\	.
.	.	.	8ff\J	.	8dd\J)	.
!!LO:LB:g=original
=120	=120	=120	=120	=120	=120	=120
4AA/	.	#	4ee\	.	(12cc#X\L	.
.	.	.	.	.	12b-y\	.
.	.	.	.	.	12a\J)	.
4.AA/	.	.	8r	.	(12ee\L	.
.	.	.	.	.	12dd\	.
.	.	.	8e/L	.	.	.
.	.	.	.	.	12cc#X\J)	.
.	.	.	8ee/	.	(8aa\L	.
8AA/	.	.	8e/J	.	8cc#X\J)	.
=121	=121	=121	=121	=121	=121	=121
4D\	.	.	4f/	.	8dd\L	.
.	.	.	.	.	8a\J	.
4.D\	.	.	8r	.	(12ff\L	.
.	.	.	.	.	12ee\	.
.	.	.	8f\L	.	.	.
.	.	.	.	.	12dd\J)	.
.	.	.	8ff\	.	(8aa\L	.
8D\	.	.	8f\J	.	8dd\J)	.
=122	=122	=122	=122	=122	=122	=122
4AA/	.	#	4e/	.	(12cc#X\L	.
.	.	.	.	.	12b-y\	.
.	.	.	.	.	12a\J)	.
4.AA/	.	.	8r	.	(12ee\L	.
.	.	.	.	.	12dd\	.
.	.	.	8e/L	.	.	.
.	.	.	.	.	12cc#X\J)	.
.	.	.	8ee/	.	(8aa\L	.
8AA/	.	.	8e/J	.	8cc#X\J)	.
=123	=123	=123	=123	=123	=123	=123
4D\	.	.	4f/	.	(8dd\L	.
.	.	.	.	.	8a\J)	.
4.D\	.	.	8r	.	(12ff\L	.
.	.	.	.	.	12ee\	.
.	.	.	8f\L	.	.	.
.	.	.	.	.	12dd\J)	.
.	.	.	8ff\	.	(8aa\L	.
8D\	.	.	8f\J	.	8dd\J)	.
=124	=124	=124	=124	=124	=124	=124
4C/	.	.	4g/	.	(12ee\L	.
.	.	.	.	.	12dd\	.
.	.	.	.	.	12cc\J)	.
4.C/	.	.	8r	.	(12gg\L	.
.	.	.	.	.	12ff\	.
.	.	.	8g\L	.	.	.
.	.	.	.	.	12ee\J)	.
.	.	.	8gg\	.	(8ccc\L	.
8C/	.	.	8g\J	.	8ee\J)	.
=125	=125	=125	=125	=125	=125	=125
4F\	.	.	4a/	.	(8ff\L	.
.	.	.	.	.	8cc\J)	.
4.F\	.	.	8r	.	(12aa\L	.
.	.	.	.	.	12gg\	.
.	.	.	8a\L	.	.	.
.	.	.	.	.	12ff\J)	.
.	.	.	8aa\	.	(8ccc\L	.
8F\	.	.	8a\J	.	8ff\J)	.
!!LO:LB:g=original
=126	=126	=126	=126	=126	=126	=126
4C/	.	.	4g/	.	(12ee\L	.
.	.	.	.	.	12dd\	.
.	.	.	.	.	12cc\J)	.
4.C#X/	.	7 5	8r	.	(12gg\L	.
.	.	.	.	.	12ff\	.
.	.	.	8g/	.	.	.
.	.	.	.	.	12ee\J)	.
.	.	.	4ee\	.	(12bb-y\L	.
.	.	.	.	.	12aa\	.
8C#y/	.	.	.	.	.	.
.	.	.	.	.	12gg\J)	.
=127	=127	=127	=127	=127	=127	=127
8D\L	.	.	8a/L	.	(12ff\L	.
.	.	.	.	.	12ee\	.
8G\J	.	.	8f/	.	.	.
.	.	.	.	.	12dd\J)	.
4A\	.	#	8e/	.	(12cc#X\L	.
.	.	.	.	.	12a\	.
.	.	.	8a/J	.	.	.
.	.	.	.	.	12dd\J)	.
4AA/	.	7 #	4g/	.	(12e/L	.
.	.	.	.	.	12dd/	.
.	.	.	.	.	12cc#y/J)	.
=128	=128	=128	=128	=128	=128	=128
2.D\;	.	.	2.f/;	.	2.dd\;	.
=129||	=129||	=129||	=129||	=129||	=129||	=129||
*>I	*>I	*>I	*>I	*>I	*>I	*>I
!!!OMD: 9. Adagio
*MM66	*	*	*MM66	*	*MM66	*
8D\L	.	.	2.r	.	4d/	.
8d\	.	.	.	.	.	.
8d\	.	.	.	.	[2dd\	.
8D\	.	.	.	.	.	.
8D\	.	.	.	.	.	.
8d\J	.	.	.	.	.	.
=130	=130	=130	=130	=130	=130	=130
8AA\L	.	5 4	4a/	.	4dd\]	.
8A\	.	.	.	.	.	.
8A\	.	7 #	[2gg\	.	8cc#X\L	.
8AA\	.	.	.	.	8bn\J	.
8AA\	.	.	.	.	4cc#X\	.
8A\J	.	.	.	.	.	.
=131	=131	=131	=131	=131	=131	=131
8D\L	.	5 4	4gg\]	.	4dd\	.
8d\	.	.	.	.	.	.
8d\	.	3	8ff\L	.	4a/	.
8D\	.	.	8ee\J	.	.	.
8D\	.	5	[4ff\	.	8aa\L	.
8d\J	.	6nr	.	.	8bbn\J	.
=132	=132	=132	=132	=132	=132	=132
8C\L	.	5 4	4ff\]	.	4cccn\	.
8c\	.	.	.	.	.	.
8c\	.	3	8ee\L	.	4cc\	.
8C\	.	.	8dd\J	.	.	.
8C\	.	7	4ee\	.	[4bb-X\	.
8c\J	.	.	.	.	.	.
=133	=133	=133	=133	=133	=133	=133
8F\L	.	5 4	4ff\	.	4bb-y\]	.
8f\	.	.	.	.	.	.
8f\	.	3	4cc\	.	8aa\L	.
8F\	.	.	.	.	8gg\J	.
8F\	.	.	[4ff\	.	4aa\	.
8f\J	.	.	.	.	.	.
!!LO:PB:g=original
=134	=134	=134	=134	=134	=134	=134
8C\L	.	5 4	4ff\]	.	4gg\	.
8c\	.	.	.	.	.	.
8c\	.	3	8ee\L	.	4cc\	.
8C\	.	.	8dd\J	.	.	.
8AA\	.	#	4ee\	.	[4gg\	.
8C#X\J	.	.	.	.	.	.
=135	=135	=135	=135	=135	=135	=135
8D\L	.	5 4	4a/	.	4gg\]	.
8d\	.	.	.	.	.	.
8d\	.	3	8dd\L	.	8ff\L	.
8D\	.	.	8cc#X\	.	8ee\	.
8G\	.	7 5	8dd\	.	8ff\	.
8GG\J	.	.	8ee\J	.	8gg\J	.
=136	=136	=136	=136	=136	=136	=136
8AA\L	.	#	4cc#X\	.	2ee\	.
8A\	.	.	.	.	.	.
8A\	.	.	4a/	.	.	.
8AA\	.	.	.	.	.	.
8AA\	.	.	4cc#X\	.	4r	.
8A\J	.	.	.	.	.	.
=137	=137	=137	=137	=137	=137	=137
8D\L	.	.	[2.dd\	.	4r	.
8d\	.	.	.	.	.	.
8d\	.	.	.	.	4a/	.
8D\	.	.	.	.	.	.
8D\	.	.	.	.	4dd\	.
8d\J	.	.	.	.	.	.
=138	=138	=138	=138	=138	=138	=138
8AA\L	.	5 4	4dd\]	.	4ee\	.
8A\	.	.	.	.	.	.
8A\	.	#	8cc#y\L	.	4a/	.
8AA\	.	.	8bn\J	.	.	.
8AA\	.	7 #	4cc#X\	.	[4gg\	.
8A\J	.	.	.	.	.	.
=139	=139	=139	=139	=139	=139	=139
8D\L	.	5 4	4dd\	.	4gg\]	.
8d\	.	.	.	.	.	.
8d\	.	3	4a/	.	8ff\L	.
8D\	.	.	.	.	8ee\J	.
8D\	.	5	8aa\L	.	[4ff\	.
8d\J	.	6nr	8bbn\J	.	.	.
=140	=140	=140	=140	=140	=140	=140
8C\L	.	5 4	4ccc\	.	4ff\]	.
8c\	.	.	.	.	.	.
8c\	.	3	4cc\	.	8ee\L	.
8C\	.	.	.	.	8dd\J	.
8C\	.	7	[4bb-y\	.	4ee\	.
8c\J	.	.	.	.	.	.
=141	=141	=141	=141	=141	=141	=141
8F\L	.	5 4	4bb-y\]	.	4ff\	.
8f\	.	.	.	.	.	.
8f\	.	3	8aa\L	.	4cc\	.
8F\	.	.	8gg\J	.	.	.
8F\	.	.	4aa\	.	4ff\	.
8f\J	.	.	.	.	.	.
=142	=142	=142	=142	=142	=142	=142
8g\L	.	6-r	2gg\	.	(4ee-X\	.
8G\	.	.	.	.	.	.
8G\	.	6 4#|	.	.	4cc#X\)	.
8A\	.	.	.	.	.	.
8B-y\	.	5 3	[4ff\	.	4dd\	.
8G\J	.	.	.	.	.	.
!!LO:LB:g=original
=143	=143	=143	=143	=143	=143	=143
8A\L	.	6 4	4ff\]	.	4A/	.
8D\	.	.	.	.	.	.
8A\	.	5 #	2ee\	.	2cc#X\	.
8AA\	.	.	.	.	.	.
8AA\	.	.	.	.	.	.
8A\J	.	.	.	.	.	.
=144	=144	=144	=144	=144	=144	=144
2.D\;	.	.	2.dd\;	.	2.dd\;	.
=145||	=145||	=145||	=145||	=145||	=145||	=145||
*>J	*>J	*>J	*>J	*>J	*>J	*>J
!!!OMD: 10. Vivace
*MM138	*	*	*MM138	*	*MM138	*
4D\	.	.	4f/	.	8dd/L	.
.	.	.	.	.	8d/	.
4r	.	.	4r	.	8f/	.
.	.	.	.	.	8d/	.
4D\	.	.	4f/	.	8a/	.
.	.	.	.	.	8dd/J	.
=146	=146	=146	=146	=146	=146	=146
4A\	.	#	4e/	.	8cc#X/L	.
.	.	.	.	.	8A/	.
4r	.	.	4r	.	8c#X/	.
.	.	.	.	.	8e/	.
4A\	.	.	4e/	.	8a/	.
.	.	.	.	.	8cc#X/J	.
=147	=147	=147	=147	=147	=147	=147
4D\	.	.	4f/	.	8dd/L	.
.	.	.	.	.	8d/	.
4r	.	.	4r	.	8f/	.
.	.	.	.	.	8d/	.
4D\	.	.	4f/	.	8a/	.
.	.	.	.	.	8dd/J	.
=148	=148	=148	=148	=148	=148	=148
4C/	.	.	4g/	.	8ee/L	.
.	.	.	.	.	8c/	.
4r	.	.	4r	.	8e/	.
.	.	.	.	.	8g/	.
4C/	.	.	4g/	.	8cc/	.
.	.	.	.	.	8ee/J	.
=149	=149	=149	=149	=149	=149	=149
4FF/	.	.	4a/	.	8ff\L	.
.	.	.	.	.	8f\	.
4r	.	.	4r	.	8a\	.
.	.	.	.	.	8f\	.
4FF/	.	.	4a/	.	8cc\	.
.	.	.	.	.	8ff\J	.
=150	=150	=150	=150	=150	=150	=150
4C/	.	.	4g/	.	8ee/L	.
.	.	.	.	.	8c/	.
4r	.	.	4r	.	8e/	.
.	.	.	.	.	8g/	.
4AA/	.	7 #	4g/	.	8cc#X/	.
.	.	.	.	.	8ee/J	.
!!LO:LB:g=original
=151	=151	=151	=151	=151	=151	=151
4D\	.	.	4f/	.	8dd/L	.
.	.	.	.	.	8d/	.
4r	.	.	4r	.	8f/	.
.	.	.	.	.	8d/	.
4GG/	.	7 5	4f/	.	8b-y/	.
.	.	.	.	.	8dd/J	.
=152	=152	=152	=152	=152	=152	=152
2.AA/	.	#	2.e/	.	8cc#X/L	.
.	.	.	.	.	8A/	.
.	.	.	.	.	8c#X/	.
.	.	.	.	.	8e/	.
.	.	.	.	.	8a/	.
.	.	.	.	.	8cc#X/J	.
=153	=153	=153	=153	=153	=153	=153
4D\	.	.	4f/	.	8dd/L	.
.	.	.	.	.	8d/	.
4r	.	.	4r	.	8f/	.
.	.	.	.	.	8d/	.
4D\	.	.	4f/	.	8a/	.
.	.	.	.	.	8dd/J	.
=154	=154	=154	=154	=154	=154	=154
4A\	.	#	4e/	.	8cc#X/L	.
.	.	.	.	.	8A/	.
4r	.	.	4r	.	8c#X/	.
.	.	.	.	.	8e/	.
4A\	.	.	4e/	.	8a/	.
.	.	.	.	.	8cc#X/J	.
=155	=155	=155	=155	=155	=155	=155
4D\	.	.	4f/	.	8dd/L	.
.	.	.	.	.	8d/	.
4r	.	.	4r	.	8f/	.
.	.	.	.	.	8d/	.
4D\	.	.	4f/	.	8a/	.
.	.	.	.	.	8dd/J	.
=156	=156	=156	=156	=156	=156	=156
4C/	.	.	4g/	.	8ee/L	.
.	.	.	.	.	8c/	.
4r	.	.	4r	.	8e/	.
.	.	.	.	.	8g/	.
4C/	.	.	4g/	.	8cc/	.
.	.	.	.	.	8ee/J	.
=157	=157	=157	=157	=157	=157	=157
4FF/	.	.	4a/	.	8ff\L	.
.	.	.	.	.	8f\	.
4r	.	.	4r	.	8a\	.
.	.	.	.	.	8f\	.
4FF/	.	.	4a/	.	8cc\	.
.	.	.	.	.	8ff\J	.
=158	=158	=158	=158	=158	=158	=158
4C/	.	.	8g/L	.	8ee\L	.
.	.	.	8a/J	.	8ff\	.
2C#X/	.	7 5	4.b-y\	.	(8gg\	.
.	.	.	.	.	8cc#X\	.
.	.	.	.	.	8a\)	.
.	.	.	8b-y\	.	8gg\J	.
!!LO:LB:g=original
=159	=159	=159	=159	=159	=159	=159
8D\L	.	.	8a/L	.	8ff\L	.
8G\J	.	.	16g/L	.	16ee\L	.
.	.	.	16f/JJ	.	16dd\JJ	.
4A\	.	#	4.e/	.	4.cc#X\	.
4AA/	.	.	.	.	.	.
.	.	.	8d/	.	8dd\	.
=160	=160	=160	=160	=160	=160	=160
2.D\;	.	.	2.d/;	.	2.dd\;	.
=161||	=161||	=161||	=161||	=161||	=161||	=161||
*>K	*>K	*>K	*>K	*>K	*>K	*>K
!!!OMD: 11. Allegro
*MM160	*	*	*MM160	*	*MM160	*
8D\L	.	.	4r	.	16r	.
.	.	.	.	.	16aa\LL	.
8d\	.	.	.	.	16ff\	.
.	.	.	.	.	16aa\JJ	.
8d\	.	.	16r	.	4dd\	.
.	.	.	16aa\LL	.	.	.
8D\J	.	.	16ff\	.	.	.
.	.	.	16aa\JJ	.	.	.
4D\	.	.	4dd\	.	16r	.
.	.	.	.	.	16aa\LL	.
.	.	.	.	.	16ff\	.
.	.	.	.	.	16aa\JJ	.
=162	=162	=162	=162	=162	=162	=162
8r	.	.	16r	.	4cc#X\	.
.	.	.	16aa\LL	.	.	.
8A\	.	#	16ee\	.	.	.
.	.	.	16aa\JJ	.	.	.
8A/L	.	.	4cc#X\	.	16r	.
.	.	.	.	.	16aa\LL	.
8AA/	.	.	.	.	16ee\	.
.	.	.	.	.	16aa\JJ	.
8AA/	.	.	16r	.	4cc#X\	.
.	.	.	16aa\LL	.	.	.
8C#X/J	.	.	16ee\	.	.	.
.	.	.	16aa\JJ	.	.	.
=163	=163	=163	=163	=163	=163	=163
8D\L	.	.	4ff\	.	16r	.
.	.	.	.	.	16aa\LL	.
8d\	.	.	.	.	16ff\	.
.	.	.	.	.	16aa\JJ	.
8d\	.	.	16r	.	4dd\	.
.	.	.	16aa\LL	.	.	.
8D\J	.	.	16ff\	.	.	.
.	.	.	16aa\JJ	.	.	.
4D\	.	.	4dd\	.	16r	.
.	.	.	.	.	16aa\LL	.
.	.	.	.	.	16ff\	.
.	.	.	.	.	16aa\JJ	.
=164	=164	=164	=164	=164	=164	=164
8r	.	.	16r	.	4ee\	.
.	.	.	16ccc\LL	.	.	.
8c\	.	.	16gg\	.	.	.
.	.	.	16ccc\JJ	.	.	.
8c\L	.	.	4ee\	.	16r	.
.	.	.	.	.	16ccc\LL	.
8C\	.	.	.	.	16gg\	.
.	.	.	.	.	16ccc\JJ	.
8C\	.	.	16r	.	4ee\	.
.	.	.	16ccc\LL	.	.	.
8E\J	.	.	16gg\	.	.	.
.	.	.	16ccc\JJ	.	.	.
!!LO:PB:g=original
=165	=165	=165	=165	=165	=165	=165
8F\L	.	.	4aa\	.	16r	.
.	.	.	.	.	16ccc\LL	.
8f\	.	.	.	.	16aa\	.
.	.	.	.	.	16ccc\JJ	.
8f\	.	.	16r	.	4ff\	.
.	.	.	16ccc\LL	.	.	.
8F\J	.	.	16aa\	.	.	.
.	.	.	16ccc\JJ	.	.	.
4F\	.	.	4ff\	.	16r	.
.	.	.	.	.	16ccc\LL	.
.	.	.	.	.	16aa\	.
.	.	.	.	.	16ccc\JJ	.
=166	=166	=166	=166	=166	=166	=166
8r	.	.	16r	.	4ee\	.
.	.	.	16ccc\LL	.	.	.
8c\	.	.	16gg\	.	.	.
.	.	.	16ccc\JJ	.	.	.
8c\L	.	.	4ee\	.	16r	.
.	.	.	.	.	16gg\LL	.
8C\	.	.	.	.	16ee\	.
.	.	.	.	.	16gg\JJ	.
8AA\	.	7 5 #	16r	.	4cc#X\	.
.	.	.	16gg\LL	.	.	.
8C#X\J	.	.	16ee\	.	.	.
.	.	.	16gg\JJ	.	.	.
=167	=167	=167	=167	=167	=167	=167
8D\L	.	.	4ff\	.	16r	.
.	.	.	.	.	16aa\LL	.
8d\	.	.	.	.	16ff\	.
.	.	.	.	.	16aa\JJ	.
8d\	.	.	16r	.	4dd\	.
.	.	.	16ff\LL	.	.	.
8D\	.	.	16dd\	.	.	.
.	.	.	16ff\JJ	.	.	.
8G\	.	7 5	16b-y\LL	.	16r	.
.	.	.	16ff\	.	16dd\LL	.
8GG\J	.	.	16dd\	.	16ff\	.
.	.	.	16ff\JJ	.	16dd\JJ	.
=168	=168	=168	=168	=168	=168	=168
8AA\L	.	#	16ee\LL	.	4cc#X\	.
.	.	.	16aa\	.	.	.
8A\	.	.	16ee\	.	.	.
.	.	.	16aa\JJ	.	.	.
8A\	.	.	4cc#X\	.	16r	.
.	.	.	.	.	16aa\LL	.
8AA\	.	.	.	.	16ee\	.
.	.	.	.	.	16aa\JJ	.
8AA\	.	.	16r	.	4cc#X\	.
.	.	.	16aa\LL	.	.	.
8C#X\J	.	.	16ee\	.	.	.
.	.	.	16aa\JJ	.	.	.
=169	=169	=169	=169	=169	=169	=169
8D\L	.	.	4ff\	.	16r	.
.	.	.	.	.	16aa\LL	.
8d\	.	.	.	.	16ff\	.
.	.	.	.	.	16aa\JJ	.
8d\	.	.	16r	.	4dd\	.
.	.	.	16aa\LL	.	.	.
8D\J	.	.	16ff\	.	.	.
.	.	.	16aa\JJ	.	.	.
4D\	.	.	4dd\	.	16r	.
.	.	.	.	.	16aa\LL	.
.	.	.	.	.	16ff\	.
.	.	.	.	.	16aa\JJ	.
!!LO:LB:g=original
=170	=170	=170	=170	=170	=170	=170
8r	.	.	16r	.	4cc#X\	.
.	.	.	16aa\LL	.	.	.
8A\	.	#	16ee\	.	.	.
.	.	.	16aa\JJ	.	.	.
8A\L	.	.	4cc#X\	.	16r	.
.	.	.	.	.	16aa\LL	.
8AA\	.	.	.	.	16ee\	.
.	.	.	.	.	16aa\JJ	.
8AA\	.	.	16r	.	4cc#X\	.
.	.	.	16aa\LL	.	.	.
8C#X\J	.	.	16ee\	.	.	.
.	.	.	16aa\JJ	.	.	.
=171	=171	=171	=171	=171	=171	=171
8D\L	.	.	4ff\	.	16r	.
.	.	.	.	.	16aa\LL	.
8d\	.	.	.	.	16ff\	.
.	.	.	.	.	16aa\JJ	.
8d\	.	.	16r	.	4dd\	.
.	.	.	16aa\LL	.	.	.
8D\J	.	.	16ff\	.	.	.
.	.	.	16aa\JJ	.	.	.
4D\	.	.	4dd\	.	16r	.
.	.	.	.	.	16aa\LL	.
.	.	.	.	.	16ff\	.
.	.	.	.	.	16aa\JJ	.
=172	=172	=172	=172	=172	=172	=172
8r	.	.	16r	.	4ee\	.
.	.	.	16ccc\LL	.	.	.
8c\	.	.	16gg\	.	.	.
.	.	.	16ccc\JJ	.	.	.
8c\L	.	.	4ee\	.	16r	.
.	.	.	.	.	16ccc\LL	.
8C\	.	.	.	.	16gg\	.
.	.	.	.	.	16ccc\JJ	.
8C\	.	.	16r	.	4ee\	.
.	.	.	16ccc\LL	.	.	.
8E\J	.	.	16gg\	.	.	.
.	.	.	16ccc\JJ	.	.	.
=173	=173	=173	=173	=173	=173	=173
8F\L	.	.	4aa\	.	16r	.
.	.	.	.	.	16ccc\LL	.
8f\	.	.	.	.	16aa\	.
.	.	.	.	.	16ccc\JJ	.
8f\	.	.	16r	.	4ff\	.
.	.	.	16ccc\LL	.	.	.
8F\J	.	.	16aa\	.	.	.
.	.	.	16ccc\JJ	.	.	.
4F\	.	.	4ff\	.	16r	.
.	.	.	.	.	16ccc\LL	.
.	.	.	.	.	16aa\	.
.	.	.	.	.	16ccc\JJ	.
=174	=174	=174	=174	=174	=174	=174
8r	.	.	16r	.	4ee\	.
.	.	.	16ccc\LL	.	.	.
8c\	.	.	16gg\	.	.	.
.	.	.	16ccc\JJ	.	.	.
8c\L	.	.	4ee\	.	16r	.
.	.	.	.	.	16gg\LL	.
8C\	.	.	.	.	16ee\	.
.	.	.	.	.	16gg\JJ	.
8AA\	.	7 5 #	16r	.	4cc#X\	.
.	.	.	16gg\LL	.	.	.
8C#X\J	.	.	16ee\	.	.	.
.	.	.	16gg\JJ	.	.	.
!!LO:LB:g=original
=175	=175	=175	=175	=175	=175	=175
4D\	.	.	16ff\LL	.	16r	.
.	.	.	16dd\	.	16ff\LL	.
.	.	.	16a\	.	16dd\	.
.	.	.	16dd\JJ	.	16ff\JJ	.
4A\	.	5 4	16e/LL	.	16a\LL	.
.	.	.	16dd/	.	16ff\	.
.	.	.	16a/	.	16dd\	.
.	.	.	16dd/JJ	.	16ff\JJ	.
4AA/	.	#	16e/LL	.	16a\LL	.
.	.	.	16cc#X/	.	16ee\	.
.	.	.	16a/	.	16cc#X\	.
.	.	.	16cc#X/JJ	.	16ee\JJ	.
=176	=176	=176	=176	=176	=176	=176
2.D\;	.	.	2.dd\;	.	2.dd\;	.
=177||	=177||	=177||	=177||	=177||	=177||	=177||
*>L	*>L	*>L	*>L	*>L	*>L	*>L
!!!OMD: 12. Larghetto
*MM44	*	*	*MM44	*	*MM44	*
2D\	.	.	2f/	.	4aa\	.
.	.	.	.	.	(8gg\L	.
.	.	.	.	.	8ff\J)	.
4GG/	.	6	4b-y\	.	(8ee\L	.
.	.	.	.	.	16.ff\L	.
.	.	.	.	.	32gg\JJk	.
=178	=178	=178	=178	=178	=178	=178
2AA/	.	#	2e/	.	2cc#X\)	.
4AA/	.	.	4e/	.	4cc#y\	.
=179	=179	=179	=179	=179	=179	=179
2D\	.	.	2f/	.	4dd\	.
.	.	.	.	.	(8.dd\L	.
.	.	.	.	.	16ee\k)	.
4D\	.	.	4f/	.	(8.ff\	.
.	.	.	.	.	16gg\Jk	.
=180	=180	=180	=180	=180	=180	=180
2C/	.	.	2g/	.	2ee\)	.
4C/	.	.	4g/	.	4ee\	.
=181	=181	=181	=181	=181	=181	=181
4F\	.	.	4a/	.	4ff\	.
2BB-y/	.	6	4.b-y\	.	(8.gg\L	.
.	.	.	.	.	16aa\k)	.
.	.	.	.	.	(8.gg\	.
.	.	.	8a/	.	.	.
.	.	.	.	.	16ff\Jk)	.
=182	=182	=182	=182	=182	=182	=182
4C/	.	.	4g/	.	4ee\	.
2AA/	.	6	4.a/	.	(8.ff\L	.
.	.	.	.	.	16gg\k)	.
.	.	.	.	.	(8.ff\	.
.	.	.	8g/	.	.	.
.	.	.	.	.	16ee\Jk)	.
=183	=183	=183	=183	=183	=183	=183
4BB-y/	.	.	4f/	.	4dd\	.
2GG/	.	6	4.g/	.	(8.ee\L	.
.	.	.	.	.	16ff\k)	.
.	.	.	.	.	(8.ee\	.
.	.	.	8f/	.	.	.
.	.	.	.	.	16dd\Jk	.
!!LO:LB:g=original
=184	=184	=184	=184	=184	=184	=184
2.AA/	.	#	2.e/	.	2.cc#X\)	.
=185	=185	=185	=185	=185	=185	=185
2D\	.	.	2f/	.	4aa\	.
.	.	.	.	.	(8gg\L	.
.	.	.	.	.	8ff\J)	.
4GG/	.	6	4b-y\	.	(8ee\L	.
.	.	.	.	.	16.ff\L	.
.	.	.	.	.	32gg\JJk	.
=186	=186	=186	=186	=186	=186	=186
2AA/	.	#	2e/	.	2cc#X\)	.
4AA/	.	.	4e/	.	4cc#y\	.
=187	=187	=187	=187	=187	=187	=187
2D\	.	.	2f/	.	4dd\	.
.	.	.	.	.	(8.dd\L	.
.	.	.	.	.	16ee\k)	.
4D\	.	.	4f/	.	(8.ff\	.
.	.	.	.	.	16gg\Jk	.
=188	=188	=188	=188	=188	=188	=188
2C/	.	.	2g/	.	2ee\)	.
4C/	.	.	4g/	.	4ee\	.
=189	=189	=189	=189	=189	=189	=189
4F\	.	.	4f/	.	4aa\	.
2G\	.	5	4b-y\	.	(8gg\L	.
.	.	.	.	.	8ff\J)	.
.	.	6	4g/	.	(8ee\L	.
.	.	.	.	.	16.ff\L	.
.	.	.	.	.	32gg\JJk	.
=190	=190	=190	=190	=190	=190	=190
4.A\	.	#	4e/	.	4.cc#X\)	.
.	.	.	4ee\	.	.	.
8G\	.	.	.	.	8a/	.
8F\L	.	6	4a/	.	[4dd\	.
8E\J	.	.	.	.	.	.
=191	=191	=191	=191	=191	=191	=191
8D\L	.	.	8ff\L	.	16dd\LL]	.
.	.	.	.	.	16cc#X\	.
8G\J	.	.	8dd\J	.	16dd\	.
.	.	.	.	.	16ee\JJ	.
4A\	.	#	4.cc#X\	.	4.ee\	.
4AA/	.	.	.	.	.	.
.	.	.	8dd\	.	8dd\	.
=192	=192	=192	=192	=192	=192	=192
2.D\;	.	.	2.dd\;	.	2.dd\;	.
!!LO:PB:g=original
=193||	=193||	=193||	=193||	=193||	=193||	=193||
*>M	*>M	*>M	*>M	*>M	*>M	*>M
!!!OMD: 13. Allegro
*M3/4	*	*	*M9/8	*	*M9/8	*
*MM156	*	*	*MM156	*	*MM156	*
4d\	.	.	(12dd\L	.	(12ff\L	.
.	.	.	12cc#X\	.	12ee\	.
.	.	.	12dd\J)	.	12ff\J)	.
4D\	.	.	(12dd\L	.	(12ff\L	.
.	.	.	12cc#X\	.	12ee\	.
.	.	.	12dd\J)	.	12ff\J)	.
4r	.	.	(12dd\L	.	(12ff\L	.
.	.	.	12ee\	.	12gg\	.
.	.	.	12dd\J)	.	12ff\J)	.
=194	=194	=194	=194	=194	=194	=194
4A\	.	#	(12cc#X\L	.	(12ee\L	.
.	.	.	12bn\	.	12dd\	.
.	.	.	12cc#y\J)	.	12ee\J)	.
4AA/	.	.	(12cc#y\L	.	(12ee\L	.
.	.	.	12bn\	.	12dd\	.
.	.	.	12cc#X\J)	.	12ee\J)	.
4r	.	.	(12cc#y\L	.	(12ee\L	.
.	.	.	12bn\	.	12dd\	.
.	.	.	12cc#X\J)	.	12ee\J)	.
=195	=195	=195	=195	=195	=195	=195
4d\	.	.	(12dd\L	.	(12ff\L	.
.	.	.	12cc#X\	.	12ee\	.
.	.	.	12dd\J)	.	12ff\J)	.
4D\	.	.	(12dd\L	.	(12ff\L	.
.	.	.	12cc#X\	.	12ee\	.
.	.	.	12dd\J)	.	12ff\J)	.
4r	.	.	(12dd\L	.	(12ff\L	.
.	.	.	12cc#X\	.	12ee\	.
.	.	.	12dd\J)	.	12ff\J)	.
=196	=196	=196	=196	=196	=196	=196
4c\	.	.	(12ee\L	.	(12gg\L	.
.	.	.	12dd\	.	12ff\	.
.	.	.	12ee\J)	.	12gg\J)	.
4C/	.	.	(12ee\L	.	(12gg\L	.
.	.	.	12dd\	.	12ff\	.
.	.	.	12ee\J)	.	12gg\J)	.
4r	.	.	(12ee\L	.	(12gg\L	.
.	.	.	12dd\	.	12ff\	.
.	.	.	12ee\J)	.	12gg\J)	.
=197	=197	=197	=197	=197	=197	=197
4F\	.	.	(12ff\L	.	(12aa\L	.
.	.	.	12ee\	.	12gg\	.
.	.	.	12ff\J)	.	12aa\J)	.
4FF/	.	.	(12ff\L	.	(12aa\L	.
.	.	.	12ee\	.	12gg\	.
.	.	.	12ff\J)	.	12aa\J)	.
4r	.	.	(12ff\L	.	(12aa\L	.
.	.	.	12gg\	.	12bb-y\	.
.	.	.	12ff\J)	.	12aa\J)	.
!!LO:LB:g=original
=198	=198	=198	=198	=198	=198	=198
4C/	.	.	(12ee\L	.	(12gg\L	.
.	.	.	12dd\	.	12ff\	.
.	.	.	12ee\J)	.	12gg\J)	.
4C#X/	.	6 5	(12ee\L	.	(12gg\L	.
.	.	.	12dd\	.	12ff\	.
.	.	.	12ee\J)	.	12gg\J)	.
4AA/	.	7 #	(12ee\L	.	(12gg\L	.
.	.	.	12ff\	.	12aa\	.
.	.	.	12ee\J)	.	12gg\J)	.
=199	=199	=199	=199	=199	=199	=199
4D\	.	.	(12dd\L	.	(12ff\L	.
.	.	.	12cc#X\	.	12ee\	.
.	.	.	12dd\J)	.	12ff\J)	.
4BB-y/	.	5	(12dd\L	.	(12ff\L	.
.	.	.	12cc#X\	.	12ee\	.
.	.	.	12dd\J)	.	12ff\J)	.
4GG/	.	7	(12dd\L	.	(12ff\L	.
.	.	.	12ee\	.	12gg\	.
.	.	.	12dd\J)	.	12ff\J)	.
=200	=200	=200	=200	=200	=200	=200
4AA/	.	#	(12cc#X\L	.	(12ee\L	.
.	.	.	12bn\	.	12dd\	.
.	.	.	12cc#y\J)	.	12ee\J)	.
4A\	.	.	(12cc#y\L	.	(12ee\L	.
.	.	.	12b\	.	12dd\	.
.	.	.	12cc#X\J)	.	12ee\J)	.
4r	.	.	(12cc#y\L	.	(12ee\L	.
.	.	.	12b\	.	12dd\	.
.	.	.	12cc#X\J)	.	12ee\J)	.
=201	=201	=201	=201	=201	=201	=201
4D\	.	.	(12dd\L	.	(12ff\L	.
.	.	.	12cc#X\	.	12ee\	.
.	.	.	12dd\J)	.	12ff\J)	.
4d\	.	.	(12dd\L	.	(12ff\L	.
.	.	.	12cc#X\	.	12ee\	.
.	.	.	12dd\J)	.	12ff\J)	.
4r	.	.	(12dd\L	.	(12ff\L	.
.	.	.	12ee\	.	12gg\	.
.	.	.	12dd\J)	.	12ff\J)	.
=202	=202	=202	=202	=202	=202	=202
4AA/	.	#	(12cc#X\L	.	(12ee\L	.
.	.	.	12bn\	.	12dd\	.
.	.	.	12cc#X\J)	.	12ee\J)	.
4A\	.	.	(12cc#y\L	.	(12ee\L	.
.	.	.	12b\	.	12dd\	.
.	.	.	12cc#X\J)	.	12ee\J)	.
4r	.	.	(12cc#y\L	.	(12ee\L	.
.	.	.	12b\	.	12dd\	.
.	.	.	12cc#X\J)	.	12ee\J)	.
!!LO:LB:g=original
=203	=203	=203	=203	=203	=203	=203
4D\	.	.	(12dd\L	.	(12ff\L	.
.	.	.	12cc#X\	.	12ee\	.
.	.	.	12dd\J)	.	12ff\J)	.
4d\	.	.	(12dd\L	.	(12ff\L	.
.	.	.	12cc#X\	.	12ee\	.
.	.	.	12dd\J)	.	12ff\J)	.
4r	.	.	(12dd\L	.	(12ff\L	.
.	.	.	12ccn\	.	12ee\	.
.	.	.	12dd\J)	.	12ff\J)	.
=204	=204	=204	=204	=204	=204	=204
4C/	.	.	(12ee\L	.	(12gg\L	.
.	.	.	12dd\	.	12ff\	.
.	.	.	12ee\J)	.	12gg\J)	.
4c\	.	.	(12ee\L	.	(12gg\L	.
.	.	.	12dd\	.	12ff\	.
.	.	.	12ee\J)	.	12gg\J)	.
4r	.	.	(12ee\L	.	(12gg\L	.
.	.	.	12dd\	.	12ff\	.
.	.	.	12ee\J)	.	12gg\J)	.
=205	=205	=205	=205	=205	=205	=205
4FF/	.	.	(12ff\L	.	(12aa\L	.
.	.	.	12ee\	.	12gg\	.
.	.	.	12ff\J)	.	12aa\J)	.
4F\	.	.	(12ff\L	.	(12aa\L	.
.	.	.	12ee\	.	12gg\	.
.	.	.	12ff\J)	.	12aa\J)	.
4r	.	.	(12ff\L	.	(12aa\L	.
.	.	.	12gg\	.	12bb-y\	.
.	.	.	12ff\J)	.	12aa\J)	.
=206	=206	=206	=206	=206	=206	=206
4C/	.	.	(12ee\L	.	(12gg\L	.
.	.	.	12dd\	.	12ff\	.
.	.	.	12ee\J)	.	12gg\J)	.
4C#X/	.	6 5	(12ee\L	.	(12gg\L	.
.	.	.	12dd\	.	12ff\	.
.	.	.	12ee\J)	.	12gg\J)	.
4AA/	.	7 #	(12ee\L	.	(12gg\L	.
.	.	.	12ff\	.	12aa\	.
.	.	.	12ee\J)	.	12gg\J)	.
=207	=207	=207	=207	=207	=207	=207
8D\L	.	.	(12ff\L	.	(12aa\L	.
.	.	.	12ee\	.	12gg\	.
8G\J	.	.	.	.	.	.
.	.	.	12dd\J)	.	12ff\J)	.
4A\	.	.	4.cc#X\	.	4.ee\	.
4AA/	.	.	.	.	.	.
.	.	.	8dd\	.	8dd\	.
=208	=208	=208	=208	=208	=208	=208
2.D\;	.	.	2.dd\;	.	2.dd\;	.
!!LO:LB:g=original
=209||	=209||	=209||	=209||	=209||	=209||	=209||
*>N	*>N	*>N	*>N	*>N	*>N	*>N
!!!OMD: 14.
*M9/8	*	*	*M3/4	*	*M3/4	*
*MM156	*	*	*MM156	*	*MM156	*
12d\L	.	.	4dd\	.	4ff\	.
12D\	.	.	.	.	.	.
12E\J	.	.	.	.	.	.
12F\L	.	6	4r	.	4r	.
12G\	.	.	.	.	.	.
12A\J	.	.	.	.	.	.
12F\L	.	6	4r	.	4r	.
12E\	.	.	.	.	.	.
12D\J	.	.	.	.	.	.
=210	=210	=210	=210	=210	=210	=210
12A\L	.	#	4cc#X\	.	4ee\	.
12AA\	.	.	.	.	.	.
12BBn\J	.	.	.	.	.	.
12C#X\L	.	6	4r	.	4r	.
12D\	.	.	.	.	.	.
12E\J	.	.	.	.	.	.
12C#X/L	.	6	4r	.	4r	.
12BBn/	.	.	.	.	.	.
12AA/J	.	.	.	.	.	.
=211	=211	=211	=211	=211	=211	=211
12d\L	.	.	4dd\	.	4ff\	.
12D\	.	.	.	.	.	.
12E\J	.	.	.	.	.	.
12F\L	.	6	4r	.	4r	.
12G\	.	.	.	.	.	.
12A\J	.	.	.	.	.	.
12F\L	.	6	4r	.	4r	.
12E\	.	.	.	.	.	.
12D\J	.	.	.	.	.	.
=212	=212	=212	=212	=212	=212	=212
12cn\L	.	.	4ee\	.	4gg\	.
12C\	.	.	.	.	.	.
12D\J	.	.	.	.	.	.
12E\L	.	6	4r	.	4r	.
12F\	.	.	.	.	.	.
12G\J	.	.	.	.	.	.
12E\L	.	6	4r	.	4r	.
12D\	.	.	.	.	.	.
12C\J	.	.	.	.	.	.
=213	=213	=213	=213	=213	=213	=213
12f\L	.	.	4ff\	.	4aa\	.
12F\	.	.	.	.	.	.
12G\J	.	.	.	.	.	.
12A\L	.	6	4r	.	4r	.
12B-y\	.	.	.	.	.	.
12c\J	.	.	.	.	.	.
12A\L	.	6	4r	.	4r	.
12G\	.	.	.	.	.	.
12F\J	.	.	.	.	.	.
!!LO:PB:g=original
=214	=214	=214	=214	=214	=214	=214
12c\L	.	.	4ee\	.	4gg\	.
12C\	.	.	.	.	.	.
12D\J	.	.	.	.	.	.
12E\L	.	6	4r	.	4r	.
12F\	.	.	.	.	.	.
12G\J	.	.	.	.	.	.
12E\L	.	6	4r	.	4r	.
12D\	.	.	.	.	.	.
12C\J	.	.	.	.	.	.
=215	=215	=215	=215	=215	=215	=215
12d\L	.	.	4dd\	.	4ff\	.
12D\	.	.	.	.	.	.
12E\J	.	.	.	.	.	.
12F\L	.	6	4r	.	4r	.
12G\	.	.	.	.	.	.
12A\J	.	.	.	.	.	.
12F\L	.	6	4r	.	4r	.
12E\	.	.	.	.	.	.
12D\J	.	.	.	.	.	.
=216	=216	=216	=216	=216	=216	=216
12A\L	.	#	4cc#X\	.	4ee\	.
12AA\	.	.	.	.	.	.
12BBn\J	.	.	.	.	.	.
12C#X\L	.	6	4r	.	4r	.
12D\	.	.	.	.	.	.
12E\J	.	.	.	.	.	.
12C#X/L	.	6	4r	.	4r	.
12BBn/	.	.	.	.	.	.
12AA/J	.	.	.	.	.	.
=217	=217	=217	=217	=217	=217	=217
12d\L	.	.	4dd\	.	4ff\	.
12D\	.	.	.	.	.	.
12E\J	.	.	.	.	.	.
12F\L	.	6	4r	.	4r	.
12G\	.	.	.	.	.	.
12A\J	.	.	.	.	.	.
12F\L	.	6	4r	.	4r	.
12E\	.	.	.	.	.	.
12D\J	.	.	.	.	.	.
=218	=218	=218	=218	=218	=218	=218
12A\L	.	#	4cc#X\	.	4ee\	.
12AA\	.	.	.	.	.	.
12BBn\J	.	.	.	.	.	.
12C#X\L	.	6	4r	.	4r	.
12D\	.	.	.	.	.	.
12E\J	.	.	.	.	.	.
12C#X/L	.	6	4r	.	4r	.
12BBn/	.	.	.	.	.	.
12AA/J	.	.	.	.	.	.
!!LO:LB:g=original
=219	=219	=219	=219	=219	=219	=219
12d\L	.	.	4dd\	.	4ff\	.
12D\	.	.	.	.	.	.
12E\J	.	.	.	.	.	.
12F\L	.	6	4r	.	4r	.
12G\	.	.	.	.	.	.
12A\J	.	.	.	.	.	.
12F\L	.	6	4r	.	4r	.
12E\	.	.	.	.	.	.
12D\J	.	.	.	.	.	.
=220	=220	=220	=220	=220	=220	=220
12c\L	.	.	4ee\	.	4gg\	.
12C\	.	.	.	.	.	.
12D\J	.	.	.	.	.	.
12E\L	.	6	4r	.	4r	.
12F\	.	.	.	.	.	.
12G\J	.	.	.	.	.	.
12E\L	.	6	4r	.	4r	.
12D\	.	.	.	.	.	.
12C\J	.	.	.	.	.	.
=221	=221	=221	=221	=221	=221	=221
12f\L	.	.	4ff\	.	4aa\	.
12F\	.	.	.	.	.	.
12G\J	.	.	.	.	.	.
12A\L	.	6	4r	.	4r	.
12B-y\	.	.	.	.	.	.
12c\J	.	.	.	.	.	.
12A\L	.	6	4r	.	4r	.
12G\	.	.	.	.	.	.
12F\J	.	.	.	.	.	.
=222	=222	=222	=222	=222	=222	=222
12c\L	.	.	4ee\	.	4gg\	.
12C\	.	.	.	.	.	.
12D\J	.	.	.	.	.	.
12E\L	.	6	4r	.	4r	.
12F\	.	.	.	.	.	.
12G\J	.	.	.	.	.	.
12AA/L	.	#	4r	.	4r	.
12BBn/	.	.	.	.	.	.
12C#X/J	.	.	.	.	.	.
=223	=223	=223	=223	=223	=223	=223
12D\L	.	.	4dd\	.	4ff\	.
12E\	.	.	.	.	.	.
12F\J	.	.	.	.	.	.
12G\L	.	.	4.dd\	.	4.ee\	.
12A\	.	.	.	.	.	.
12B-y\J	.	.	.	.	.	.
6A\	.	5 4	.	.	.	.
.	.	.	8cc#X\	.	8ee\	.
12AA/	.	#	.	.	.	.
=224	=224	=224	=224	=224	=224	=224
2.D\;	.	.	2.dd\;	.	2.dd\;	.
!!LO:LB:g=original
=225||	=225||	=225||	=225||	=225||	=225||	=225||
*>O	*>O	*>O	*>O	*>O	*>O	*>O
!!!OMD: 15. Adagio
*M12/8	*	*	*M12/8	*	*M12/8	*
*MM55	*	*	*MM55	*	*MM55	*
4D\	.	.	4f/	.	8.dd\L	.
.	.	.	.	.	16ee\k	.
8D\	.	.	8f/	.	8dd\J	.
4D\	.	.	4f/	.	4aa\	.
8D\	.	.	8f/	.	8dd\	.
4AA/	.	5 4	4e/	.	4dd\	.
8AA/	.	#	8e/	.	8cc#X\	.
4AA/	.	.	4e/	.	4A/	.
8AA/	.	.	8e/	.	8cc#X\	.
=226	=226	=226	=226	=226	=226	=226
4D\	.	.	4f/	.	8.dd\L	.
.	.	.	.	.	16ee\k	.
8D\	.	.	8f/	.	8dd\J	.
4D\	.	.	4f/	.	4aa\	.
8D\	.	.	8f/	.	8dd\	.
4C/	.	.	4g/	.	(8.ee\L	.
.	.	.	.	.	16dd\k	.
8C/	.	.	8g/	.	8cc\J)	.
4C/	.	.	4g/	.	4c/	.
8C/	.	.	8g/	.	8ee\	.
=227	=227	=227	=227	=227	=227	=227
4F\	.	.	4a/	.	8.ff\L	.
.	.	.	.	.	16gg\k	.
8F\	.	.	8a/	.	8ff\J	.
4F\	.	.	4a/	.	4ccc\	.
8F\	.	.	8a/	.	8ff\	.
4C/	.	.	4g/	.	8.ee\L	.
.	.	.	.	.	16ff\k	.
8C#X/	.	6 5	8g/	.	8ee\J	.
4C#y/	.	.	4g/	.	4aa\	.
8AA/	.	#	8g/	.	8cc#X\	.
=228	=228	=228	=228	=228	=228	=228
4D\	.	.	4f/	.	8.dd\L	.
.	.	.	.	.	16ee\k	.
8D\	.	.	8f/	.	8dd\J	.
4GG/	.	7 5	4f/	.	4bb-y\	.
8GG/	.	.	8f/	.	8dd\	.
4AA/	.	5 4	4e/	.	(4.dd\	.
8AA/	.	.	8e/	.	.	.
4AA/	.	#	4e/	.	4.cc#X\)	.
8AA/	.	.	8e/	.	.	.
!!LO:LB:g=original
=229	=229	=229	=229	=229	=229	=229
4D\	.	.	4f/	.	8.dd\L	.
.	.	.	.	.	16ee\k	.
8D\	.	.	8f/	.	8dd\J	.
4D\	.	.	4f/	.	4aa\	.
8D\	.	.	8f/	.	8dd\	.
4AA/	.	5 4	4e/	.	4dd\	.
8AA/	.	#	8e/	.	8cc#X\	.
4AA/	.	.	4e/	.	4A/	.
8AA/	.	.	8e/	.	8cc#X\	.
=230	=230	=230	=230	=230	=230	=230
4D\	.	.	4f/	.	8.dd\L	.
.	.	.	.	.	16ee\k	.
8D\	.	.	8f/	.	8dd\J	.
4D\	.	.	4f/	.	4aa\	.
8D\	.	.	8f/	.	8dd\	.
4C/	.	.	4g/	.	(8.ee\L	.
.	.	.	.	.	16dd\k	.
8C/	.	.	8g/	.	8cc\J)	.
4C/	.	.	4g/	.	4c/	.
8C/	.	.	8g/	.	8ee\	.
=231	=231	=231	=231	=231	=231	=231
4F\	.	.	4a/	.	8.ff\L	.
.	.	.	.	.	16gg\k	.
8F\	.	.	8a/	.	8ff\J	.
4F\	.	.	4a/	.	4ccc\	.
8F\	.	.	8a/	.	8ff\	.
4C/	.	5 4	4.g/	.	4ff\	.
8C/	.	X 3	.	.	8ee\	.
8C#X\L	.	7 5	(8.gg\L	.	(8.bb-y\L	.
8D\	.	.	.	.	.	.
.	.	.	16ff\k	.	16aa\k	.
8E\J	.	.	8ee\J)	.	8gg\J)	.
=232	=232	=232	=232	=232	=232	=232
4D\	.	.	(8.ff\L	.	(8.aa\L	.
.	.	.	16ee\k	.	16gg\k	.
8G\	.	7 5	8dd\J)	.	8ff\J)	.
4A\	.	6 4	(4dd\	.	(4ff\	.
8AA/	.	5 #	8cc#X\)	.	8ee\)	.
2.D\;	.	.	2.dd\;	.	2.dd\;	.
!!LO:PB:g=original
=233||	=233||	=233||	=233||	=233||	=233||	=233||
*>P	*>P	*>P	*>P	*>P	*>P	*>P
!!!OMD: 16. Allegro
*M3/4	*	*	*M3/4	*	*M3/4	*
*MM154	*	*	*MM154	*	*MM154	*
4D\	.	.	4f/	.	8dd/L	.
.	.	.	.	.	8f/	.
4D\	.	.	4f/	.	8d/	.
.	.	.	.	.	8dd/	.
4D\	.	.	4f/	.	8d/	.
.	.	.	.	.	8dd/J	.
=234	=234	=234	=234	=234	=234	=234
4AA/	.	#	4e/	.	8cc#X/L	.
.	.	.	.	.	8e/	.
4AA/	.	.	4e/	.	8A/	.
.	.	.	.	.	8cc#X/	.
4AA/	.	.	4e/	.	8A/	.
.	.	.	.	.	8cc#X/J	.
=235	=235	=235	=235	=235	=235	=235
4D\	.	.	4f/	.	8dd/L	.
.	.	.	.	.	8f/	.
4D\	.	.	4f/	.	8d/	.
.	.	.	.	.	8dd/	.
4D\	.	.	4f/	.	8d/	.
.	.	.	.	.	8dd/J	.
=236	=236	=236	=236	=236	=236	=236
4C/	.	.	4g/	.	8ee/L	.
.	.	.	.	.	8g/	.
4C/	.	.	4g/	.	8c/	.
.	.	.	.	.	8ee/	.
4C/	.	.	4g/	.	8c/	.
.	.	.	.	.	8ee/J	.
=237	=237	=237	=237	=237	=237	=237
4F\	.	.	4a/	.	8ff\L	.
.	.	.	.	.	8cc\	.
4F\	.	.	4a/	.	8f\	.
.	.	.	.	.	8ff\	.
4F\	.	.	4a/	.	8f\	.
.	.	.	.	.	8ff\J	.
=238	=238	=238	=238	=238	=238	=238
4C/	.	.	4g/	.	8ee/L	.
.	.	.	.	.	8g/	.
4C/	.	.	4g/	.	8c/	.
.	.	.	.	.	8ee/	.
4C#X/	.	6 5	4g/	.	8c#X/	.
.	.	.	.	.	8ee/J	.
=239	=239	=239	=239	=239	=239	=239
4D\	.	.	4f/	.	8dd/L	.
.	.	.	.	.	8f/	.
4BB-y/	.	.	4f/	.	8B-y/	.
.	.	.	.	.	8dd/	.
4GG/	.	7 5	4f/	.	8G/	.
.	.	.	.	.	8dd/J	.
=240	=240	=240	=240	=240	=240	=240
4AA/	.	#	4e/	.	8cc#X/L	.
.	.	.	.	.	8e/	.
4AA/	.	.	4e/	.	8A/	.
.	.	.	.	.	8cc#X/	.
4AA/	.	.	4e/	.	8A/	.
.	.	.	.	.	8cc#X/J	.
=241	=241	=241	=241	=241	=241	=241
4D\	.	.	4f/	.	8dd/L	.
.	.	.	.	.	8f/	.
4D\	.	.	4f/	.	8d/	.
.	.	.	.	.	8dd/	.
4D\	.	.	4f/	.	8d/	.
.	.	.	.	.	8dd/J	.
=242	=242	=242	=242	=242	=242	=242
4AA/	.	#	4e/	.	8cc#X/L	.
.	.	.	.	.	8e/	.
4AA/	.	.	4e/	.	8A/	.
.	.	.	.	.	8cc#X/	.
4AA/	.	.	4e/	.	8A/	.
.	.	.	.	.	8cc#X/J	.
!!LO:LB:g=original
=243	=243	=243	=243	=243	=243	=243
4D\	.	.	4f/	.	8dd/L	.
.	.	.	.	.	8f/	.
4D\	.	.	4f/	.	8d/	.
.	.	.	.	.	8dd/	.
4D\	.	.	4f/	.	8d/	.
.	.	.	.	.	8dd/J	.
=244	=244	=244	=244	=244	=244	=244
4C/	.	.	4g/	.	8ee/L	.
.	.	.	.	.	8g/	.
4C/	.	.	4g/	.	8c/	.
.	.	.	.	.	8ee/	.
4C/	.	.	4g/	.	8c/	.
.	.	.	.	.	8ee/J	.
=245	=245	=245	=245	=245	=245	=245
4F\	.	.	4a/	.	8ff\L	.
.	.	.	.	.	8cc\	.
4F\	.	.	4a/	.	8f\	.
.	.	.	.	.	8ff\	.
4F\	.	.	4a/	.	8f\	.
.	.	.	.	.	8ff\J	.
=246	=246	=246	=246	=246	=246	=246
4C/	.	.	4g/	.	8ee/L	.
.	.	.	.	.	8g/	.
4C/	.	.	4g/	.	8c/	.
.	.	.	.	.	8ee/	.
4C#X/	.	6 5	4g/	.	8c#X/	.
.	.	.	.	.	8ee/J	.
=247	=247	=247	=247	=247	=247	=247
4D\	.	.	4f/	.	8dd/L	.
.	.	.	.	.	8f/	.
4A\	.	5 4	4e/	.	8A/	.
.	.	.	.	.	8dd/	.
4AA/	.	#	4e/	.	8A/	.
.	.	.	.	.	8cc#X/J	.
=248	=248	=248	=248	=248	=248	=248
2.D\;	.	.	2.d/;	.	2.d/;	.
=249||	=249||	=249||	=249||	=249||	=249||	=249||
*>Q	*>Q	*>Q	*>Q	*>Q	*>Q	*>Q
!!!OMD: 17.
*MM150	*	*	*MM150	*	*MM150	*
8d\L	.	.	8r	.	8r	.
8D\J	.	.	16dd\LL	.	16ff\LL	.
.	.	.	16cc#X\JJ	.	16ee\JJ	.
16D\LL	.	.	8dd/L	.	8ff\L	.
16E\	.	.	.	.	.	.
16F\	.	.	8d/J	.	8f\J	.
16G\JJ	.	.	.	.	.	.
16A\LL	.	6 4	8dd/L	.	8ff\L	.
16Bn\	.	.	.	.	.	.
16c#X\	.	.	8d/J	.	8f\J	.
16d\JJ	.	.	.	.	.	.
=250	=250	=250	=250	=250	=250	=250
8A\L	.	#	8c#X/L	.	8e/L	.
8AA\J	.	.	16cc#X/L	.	16ee/L	.
.	.	.	16bn/JJ	.	16dd/JJ	.
16AA/LL	.	.	8cc#y/L	.	8ee/L	.
16BBn/	.	.	.	.	.	.
16C#X/	.	.	8c#y/J	.	8e/J	.
16D/JJ	.	.	.	.	.	.
16E\LL	.	6#/ 4	8cc#y/L	.	8ee/L	.
16F\	.	.	.	.	.	.
16G\	.	.	8c#y/J	.	8e/J	.
16A\JJ	.	.	.	.	.	.
!!LO:LB:g=original
=251	=251	=251	=251	=251	=251	=251
8D/L	.	.	8d/L	.	8f\L	.
8DD/J	.	.	16dd/L	.	16ff\L	.
.	.	.	16cc#X/JJ	.	16ee\JJ	.
16D\LL	.	.	8dd/L	.	8ff\L	.
16E\	.	.	.	.	.	.
16F\	.	.	8d/J	.	8f\J	.
16G\JJ	.	.	.	.	.	.
16A\LL	.	6 4	8dd/L	.	8ff\L	.
16Bn\	.	.	.	.	.	.
16c#X\	.	.	8d/J	.	8f\J	.
16d\JJ	.	.	.	.	.	.
=252	=252	=252	=252	=252	=252	=252
8c\L	.	.	8e/L	.	8g\L	.
8C\J	.	.	16ee/L	.	16gg\L	.
.	.	.	16dd/JJ	.	16ff\JJ	.
16C\LL	.	.	8ee/L	.	8gg\L	.
16D\	.	.	.	.	.	.
16E\	.	.	8e/J	.	8g\J	.
16F\JJ	.	.	.	.	.	.
16G\LL	.	6 4	8ee/L	.	8gg\L	.
16A\	.	.	.	.	.	.
16B-y\	.	.	8e/J	.	8g\J	.
16c\JJ	.	.	.	.	.	.
=253	=253	=253	=253	=253	=253	=253
8F/L	.	.	8f\L	.	8a\L	.
8FF/J	.	.	16ff\L	.	16aa\L	.
.	.	.	16ee\JJ	.	16gg\JJ	.
16F\LL	.	.	8ff\L	.	8aa\L	.
16G\	.	.	.	.	.	.
16A\	.	.	8f\J	.	8a\J	.
16B-y\JJ	.	.	.	.	.	.
16c\LL	.	6 4	8ff\L	.	8aa\L	.
16d\	.	.	.	.	.	.
16e\	.	.	8f\J	.	8a\J	.
16f\JJ	.	.	.	.	.	.
=254	=254	=254	=254	=254	=254	=254
8c\L	.	.	8e/L	.	8g\L	.
8C\J	.	.	16ee/L	.	16gg\L	.
.	.	.	16dd/JJ	.	16ff\JJ	.
16C#X\LL	.	6 5	8ee/L	.	8gg\L	.
16D\	.	.	.	.	.	.
16E\	.	.	8e/J	.	8g\J	.
16F\JJ	.	.	.	.	.	.
16G\LL	.	9 8 6	8ee/L	.	8gg\L	.
16A\	.	.	.	.	.	.
16Bn\	.	.	8e/J	.	8g\J	.
16c#X\JJ	.	.	.	.	.	.
=255	=255	=255	=255	=255	=255	=255
8d\L	.	.	8d/L	.	8f\L	.
8D\J	.	.	16dd/L	.	16ff\L	.
.	.	.	16cc#X/JJ	.	16ee\JJ	.
16GG/LL	.	7 5	8dd/L	.	8ff\L	.
16AA/	.	.	.	.	.	.
16BB-y/	.	.	8d/J	.	8f\J	.
16C/JJ	.	.	.	.	.	.
16D\LL	.	6	8dd/L	.	8ff\L	.
16E\	.	.	.	.	.	.
16F\	.	.	8d/J	.	8f\J	.
16G\JJ	.	.	.	.	.	.
!!LO:LB:g=original
=256	=256	=256	=256	=256	=256	=256
4AA/	.	#	8c#X/L	.	8e\L	.
.	.	.	16cc#X/L	.	16ee\L	.
.	.	.	16bn/JJ	.	16dd\JJ	.
16AA/LL	.	.	8cc#X/L	.	8ee/L	.
16BBn/	.	.	.	.	.	.
16C#X/	.	.	8c#X/J	.	8e/J	.
16D/JJ	.	.	.	.	.	.
16E\LL	.	6#/ 4	8cc#X/L	.	8ee/L	.
16F\	.	.	.	.	.	.
16G\	.	.	8c#X/J	.	8e/J	.
16A\JJ	.	.	.	.	.	.
=257	=257	=257	=257	=257	=257	=257
8D/L	.	.	8d/L	.	8f\L	.
8DD/J	.	.	16dd/L	.	16ff\L	.
.	.	.	16cc#X/JJ	.	16ee\JJ	.
16D\LL	.	.	8dd/L	.	8ff\L	.
16E\	.	.	.	.	.	.
16F\	.	.	8d/J	.	8f\J	.
16G\JJ	.	.	.	.	.	.
16A\LL	.	6 4	8dd/L	.	8ff\L	.
16Bn\	.	.	.	.	.	.
16c#X\	.	.	8d/J	.	8f\J	.
16d\JJ	.	.	.	.	.	.
=258	=258	=258	=258	=258	=258	=258
8A\L	.	#	8c#X/L	.	8e\L	.
8AA\J	.	.	16cc#X/L	.	16ee\L	.
.	.	.	16bn/JJ	.	16dd\JJ	.
16AA/LL	.	.	8cc#X/L	.	8ee/L	.
16BBn/	.	.	.	.	.	.
16C#X/	.	.	8c#X/J	.	8e/J	.
16D/JJ	.	.	.	.	.	.
16E\LL	.	6#/ 4	8cc#X/L	.	8ee/L	.
16F\	.	.	.	.	.	.
16G\	.	.	8c#X/J	.	8e/J	.
16A\JJ	.	.	.	.	.	.
=259	=259	=259	=259	=259	=259	=259
8D/L	.	.	8d/L	.	8f\L	.
8DD/J	.	.	16dd/L	.	16ff\L	.
.	.	.	16cc#X/JJ	.	16ee\JJ	.
16D\LL	.	.	8dd/L	.	8ff\L	.
16E\	.	.	.	.	.	.
16F\	.	.	8d/J	.	8f\J	.
16G\JJ	.	.	.	.	.	.
16A\LL	.	6 4	8dd/L	.	8ff\L	.
16B-y\	.	.	.	.	.	.
16c\	.	.	8d/J	.	8f\J	.
16d\JJ	.	.	.	.	.	.
=260	=260	=260	=260	=260	=260	=260
8c\L	.	.	8e/L	.	8g\L	.
8C\J	.	.	16ee/L	.	16gg\L	.
.	.	.	16dd/JJ	.	16ff\JJ	.
16C\LL	.	.	8ee/L	.	8gg\L	.
16D\	.	.	.	.	.	.
16E\	.	.	8e/J	.	8g\J	.
16F\JJ	.	.	.	.	.	.
16G\LL	.	6 4	8ee/L	.	8gg\L	.
16A\	.	.	.	.	.	.
16B-y\	.	.	8e/J	.	8g\J	.
16c\JJ	.	.	.	.	.	.
!!LO:PB:g=original
=261	=261	=261	=261	=261	=261	=261
8F/L	.	.	8f\L	.	8a\L	.
8FF/J	.	.	16ff\L	.	16aa\L	.
.	.	.	16ee\JJ	.	16gg\JJ	.
16F\LL	.	.	8ff\L	.	8aa\L	.
16G\	.	.	.	.	.	.
16A\	.	.	8f\J	.	8a\J	.
16B-y\JJ	.	.	.	.	.	.
16c\LL	.	6 4	8ff\L	.	8aa\L	.
16d\	.	.	.	.	.	.
16e\	.	.	8f\J	.	8a\J	.
16f\JJ	.	.	.	.	.	.
=262	=262	=262	=262	=262	=262	=262
8c\L	.	.	8e\L	.	8g\L	.
8C\J	.	.	16ee\L	.	16gg\L	.
.	.	.	16dd\JJ	.	16ff\JJ	.
16C#X\LL	.	6 5	8ee/L	.	8gg\L	.
16D\	.	.	.	.	.	.
16E\	.	.	8e/J	.	8g\J	.
16F\JJ	.	.	.	.	.	.
16G\LL	.	9 8 6	8ee/L	.	8gg\L	.
16A\	.	.	.	.	.	.
16Bn\	.	.	8e/J	.	8g\J	.
16c#X\JJ	.	.	.	.	.	.
=263	=263	=263	=263	=263	=263	=263
8D/L	.	.	8dd\L	.	8ff\L	.
8GG/J	.	.	16ee\L	.	16gg\L	.
.	.	.	16dd\JJ	.	16ff\JJ	.
16AA/LL	.	#	8cc#X/L	.	8ee/L	.
16BBn/	.	.	.	.	.	.
16C#X/	.	.	8c#X/J	.	8e/J	.
16D/JJ	.	.	.	.	.	.
16E\LL	.	6#/ 4	8cc#X/L	.	8ee/L	.
16F\	.	.	.	.	.	.
16G\	.	.	8c#X/J	.	8e/J	.
16A\JJ	.	.	.	.	.	.
=264	=264	=264	=264	=264	=264	=264
2.D\;	.	.	2.d/;	.	2.d/;	.
=265||	=265||	=265||	=265||	=265||	=265||	=265||
*>R	*>R	*>R	*>R	*>R	*>R	*>R
!!!OMD: 18.
*MM150	*	*	*MM150	*	*MM150	*
4d\	.	.	4dd\	.	16ff\LL	.
.	.	.	.	.	16dd\	.
.	.	.	.	.	16a\	.
.	.	.	.	.	16ff\JJ	.
8D\L	.	.	4.dd\	.	16ff\LL	.
.	.	.	.	.	16dd\	.
8F\	.	.	.	.	16a\	.
.	.	.	.	.	16ff\JJ	.
8E\	.	.	.	.	16ff\LL	.
.	.	.	.	.	16dd\	.
8D\J	.	.	8dd\	.	16a\	.
.	.	.	.	.	16ff\JJ	.
=266	=266	=266	=266	=266	=266	=266
4A\	.	#	4cc#X\	.	16ee\LL	.
.	.	.	.	.	16cc#X\	.
.	.	.	.	.	16a\	.
.	.	.	.	.	16ee\JJ	.
8AA/L	.	.	4.cc#y\	.	16ee\LL	.
.	.	.	.	.	16cc#X\	.
8C#X/	.	.	.	.	16a\	.
.	.	.	.	.	16ee\JJ	.
8BBn/	.	.	.	.	16ee\LL	.
.	.	.	.	.	16cc#X\	.
8AA/J	.	.	8cc#y\	.	16a\	.
.	.	.	.	.	16ee\JJ	.
!!LO:LB:g=original
=267	=267	=267	=267	=267	=267	=267
4D\	.	.	4dd\	.	16ff\LL	.
.	.	.	.	.	16dd\	.
.	.	.	.	.	16a\	.
.	.	.	.	.	16ff\JJ	.
8d\L	.	.	4.dd\	.	16ff\LL	.
.	.	.	.	.	16dd\	.
8f\	.	.	.	.	16a\	.
.	.	.	.	.	16ff\JJ	.
8e\	.	.	.	.	16ff\LL	.
.	.	.	.	.	16dd\	.
8d\J	.	.	8dd\	.	16a\	.
.	.	.	.	.	16ff\JJ	.
=268	=268	=268	=268	=268	=268	=268
4c\	.	.	4ee\	.	16gg\LL	.
.	.	.	.	.	16ee\	.
.	.	.	.	.	16cc\	.
.	.	.	.	.	16gg\JJ	.
8C/L	.	.	4.ee\	.	16gg\LL	.
.	.	.	.	.	16ee\	.
8E/	.	.	.	.	16cc\	.
.	.	.	.	.	16gg\JJ	.
8D/	.	.	.	.	16gg\LL	.
.	.	.	.	.	16ee\	.
8C/J	.	.	8ee\	.	16cc\	.
.	.	.	.	.	16gg\JJ	.
=269	=269	=269	=269	=269	=269	=269
4FF/	.	.	4ff\	.	16aa\LL	.
.	.	.	.	.	16ff\	.
.	.	.	.	.	16cc\	.
.	.	.	.	.	16aa\JJ	.
8F\L	.	.	4.ff\	.	16aa\LL	.
.	.	.	.	.	16ff\	.
8A\	.	.	.	.	16cc\	.
.	.	.	.	.	16aa\JJ	.
8G\	.	.	.	.	16aa\LL	.
.	.	.	.	.	16ff\	.
8F\J	.	.	8ff\	.	16cc\	.
.	.	.	.	.	16aa\JJ	.
=270	=270	=270	=270	=270	=270	=270
4C/	.	.	4ee\	.	16gg\LL	.
.	.	.	.	.	16ee\	.
.	.	.	.	.	16cc\	.
.	.	.	.	.	16gg\JJ	.
8C#X/L	.	6 5	4.ee\	.	16gg\LL	.
.	.	.	.	.	16ee\	.
8E/	.	.	.	.	16a\	.
.	.	.	.	.	16gg\JJ	.
8D/	.	.	.	.	16gg\LL	.
.	.	.	.	.	16ee\	.
8C#X/J	.	.	8ee\	.	16a\	.
.	.	.	.	.	16gg\JJ	.
=271	=271	=271	=271	=271	=271	=271
4D\	.	.	4dd\	.	16ff\LL	.
.	.	.	.	.	16dd\	.
.	.	.	.	.	16a\	.
.	.	.	.	.	16ff\JJ	.
8GG/L	.	7 5	4.dd\	.	16ff\LL	.
.	.	.	.	.	16dd\	.
8BB-y/	.	.	.	.	16b-y\	.
.	.	.	.	.	16ff\JJ	.
8AA/	.	.	.	.	16ff\LL	.
.	.	.	.	.	16dd\	.
8GG/J	.	.	8dd\	.	16b-y\	.
.	.	.	.	.	16ff\JJ	.
!!LO:LB:g=original
=272	=272	=272	=272	=272	=272	=272
4AA/	.	#	4cc#X\	.	16ee\LL	.
.	.	.	.	.	16cc#X\	.
.	.	.	.	.	16a\	.
.	.	.	.	.	16ee\JJ	.
8A\L	.	.	4.cc#y\	.	16ee\LL	.
.	.	.	.	.	16cc#X\	.
8c#X\	.	.	.	.	16a\	.
.	.	.	.	.	16ee\JJ	.
8Bn\	.	.	.	.	16ee\LL	.
.	.	.	.	.	16cc#X\	.
8A\J	.	.	8cc#y\	.	16a\	.
.	.	.	.	.	16ee\JJ	.
=273	=273	=273	=273	=273	=273	=273
4d\	.	.	4dd\	.	16ff\LL	.
.	.	.	.	.	16dd\	.
.	.	.	.	.	16a\	.
.	.	.	.	.	16ff\JJ	.
8D\L	.	.	4.dd\	.	16ff\LL	.
.	.	.	.	.	16dd\	.
8F\	.	.	.	.	16a\	.
.	.	.	.	.	16ff\JJ	.
8E\	.	.	.	.	16ff\LL	.
.	.	.	.	.	16dd\	.
8D\J	.	.	8dd\	.	16a\	.
.	.	.	.	.	16ff\JJ	.
=274	=274	=274	=274	=274	=274	=274
4A\	.	#	4cc#X\	.	16ee\LL	.
.	.	.	.	.	16cc#X\	.
.	.	.	.	.	16a\	.
.	.	.	.	.	16ee\JJ	.
8AA/L	.	.	4.cc#y\	.	16ee\LL	.
.	.	.	.	.	16cc#X\	.
8C#X/	.	.	.	.	16a\	.
.	.	.	.	.	16ee\JJ	.
8BBn/	.	.	.	.	16ee\LL	.
.	.	.	.	.	16cc#X\	.
8AA/J	.	.	8cc#y\	.	16a\	.
.	.	.	.	.	16ee\JJ	.
=275	=275	=275	=275	=275	=275	=275
4D\	.	.	4dd\	.	16ff\LL	.
.	.	.	.	.	16dd\	.
.	.	.	.	.	16a\	.
.	.	.	.	.	16ff\JJ	.
8d\L	.	.	4.dd\	.	16ff\LL	.
.	.	.	.	.	16dd\	.
8f\	.	.	.	.	16a\	.
.	.	.	.	.	16ff\JJ	.
8e\	.	.	.	.	16ff\LL	.
.	.	.	.	.	16dd\	.
8d\J	.	.	8dd\	.	16a\	.
.	.	.	.	.	16ff\JJ	.
=276	=276	=276	=276	=276	=276	=276
4c\	.	.	4ee\	.	16gg\LL	.
.	.	.	.	.	16ee\	.
.	.	.	.	.	16cc\	.
.	.	.	.	.	16gg\JJ	.
8C/L	.	.	4.ee\	.	16gg\LL	.
.	.	.	.	.	16ee\	.
8E/	.	.	.	.	16cc\	.
.	.	.	.	.	16gg\JJ	.
8D/	.	.	.	.	16gg\LL	.
.	.	.	.	.	16ee\	.
8C/J	.	.	8ee\	.	16cc\	.
.	.	.	.	.	16gg\JJ	.
!!LO:LB:g=original
=277	=277	=277	=277	=277	=277	=277
4FF/	.	.	4ff\	.	16aa\LL	.
.	.	.	.	.	16ff\	.
.	.	.	.	.	16cc\	.
.	.	.	.	.	16aa\JJ	.
8F\L	.	.	4.ff\	.	16aa\LL	.
.	.	.	.	.	16ff\	.
8A\	.	.	.	.	16cc\	.
.	.	.	.	.	16aa\JJ	.
8G\	.	.	.	.	16aa\LL	.
.	.	.	.	.	16ff\	.
8F\J	.	.	8ff\	.	16cc\	.
.	.	.	.	.	16aa\JJ	.
=278	=278	=278	=278	=278	=278	=278
4C/	.	.	4ee\	.	16gg\LL	.
.	.	.	.	.	16ee\	.
.	.	.	.	.	16cc\	.
.	.	.	.	.	16gg\JJ	.
8C#X/L	.	7 5	4.ee\	.	16gg\LL	.
.	.	.	.	.	16ee\	.
8E/	.	.	.	.	16a\	.
.	.	.	.	.	16gg\JJ	.
8D/	.	.	.	.	16gg\LL	.
.	.	.	.	.	16ee\	.
8C#X/J	.	.	8ee\	.	16a\	.
.	.	.	.	.	16gg\JJ	.
=279	=279	=279	=279	=279	=279	=279
4D\	.	.	4dd\	.	16ff\LL	.
.	.	.	.	.	16dd\	.
.	.	.	.	.	16a\	.
.	.	.	.	.	16ff\JJ	.
4A\	.	#	4.cc#X\	.	16ee\LL	.
.	.	.	.	.	16cc#X\	.
.	.	.	.	.	16a\	.
.	.	.	.	.	16ee\JJ	.
4AA/	.	.	.	.	16ee\LL	.
.	.	.	.	.	16cc#X\	.
.	.	.	8cc#y\	.	16a\	.
.	.	.	.	.	16ee\JJ	.
=280	=280	=280	=280	=280	=280	=280
2.D\;	.	.	2.dd\;	.	2.dd\;	.
=281||	=281||	=281||	=281||	=281||	=281||	=281||
*>S	*>S	*>S	*>S	*>S	*>S	*>S
!!!OMD: 19.
*MM150	*	*	*MM150	*	*MM150	*
8D\L	.	.	16dd\LL	.	16ff\LL	.
.	.	.	16ff\	.	16aa\	.
8D\	.	.	16ff\	.	16aa\	.
.	.	.	16dd\JJ	.	16ff\JJ	.
8D\	.	.	16dd\LL	.	16ff\LL	.
.	.	.	16ff\	.	16aa\	.
8D\	.	.	16ff\	.	16aa\	.
.	.	.	16dd\JJ	.	16ff\JJ	.
8D\	.	.	16dd\LL	.	16ff\LL	.
.	.	.	16ff\	.	16aa\	.
8D\J	.	.	16ff\	.	16aa\	.
.	.	.	16dd\JJ	.	16ff\JJ	.
=282	=282	=282	=282	=282	=282	=282
8A\L	.	#	16cc#X\LL	.	16ee\LL	.
.	.	.	16ee\	.	16gg\	.
8A\	.	.	16ee\	.	16gg\	.
.	.	.	16cc#X\JJ	.	16ee\JJ	.
8A\	.	.	16cc#y\LL	.	16ee\LL	.
.	.	.	16ee\	.	16gg\	.
8A\	.	.	16ee\	.	16gg\	.
.	.	.	16cc#X\JJ	.	16ee\JJ	.
8A\	.	.	16cc#y\LL	.	16ee\LL	.
.	.	.	16ee\	.	16gg\	.
8A\J	.	.	16ee\	.	16gg\	.
.	.	.	16cc#X\JJ	.	16ee\JJ	.
!!LO:PB:g=original
=283	=283	=283	=283	=283	=283	=283
8D\L	.	.	16dd\LL	.	16ff\LL	.
.	.	.	16ff\	.	16aa\	.
8D\	.	.	16ff\	.	16aa\	.
.	.	.	16dd\JJ	.	16ff\JJ	.
8D\	.	.	16dd\LL	.	16ff\LL	.
.	.	.	16ff\	.	16aa\	.
8D\	.	.	16ff\	.	16aa\	.
.	.	.	16dd\JJ	.	16ff\JJ	.
8D\	.	6	16dd\LL	.	16ff\LL	.
.	.	.	16ff\	.	16bb-y\	.
8D\J	.	.	16ff\	.	16bb-y\	.
.	.	.	16dd\JJ	.	16ff\JJ	.
=284	=284	=284	=284	=284	=284	=284
8C/L	.	7	16ee\LL	.	16gg\LL	.
.	.	.	16gg\	.	16bb-y\	.
8C/	.	.	16gg\	.	16bb-y\	.
.	.	.	16ee\JJ	.	16gg\JJ	.
8C/	.	.	16ee\LL	.	16gg\LL	.
.	.	.	16gg\	.	16bb-y\	.
8C/	.	.	16gg\	.	16bb-y\	.
.	.	.	16ee\JJ	.	16gg\JJ	.
8C/	.	.	16ee\LL	.	16gg\LL	.
.	.	.	16gg\	.	16bb-y\	.
8C/J	.	.	16gg\	.	16bb-y\	.
.	.	.	16ee\JJ	.	16gg\JJ	.
=285	=285	=285	=285	=285	=285	=285
8F\L	.	.	16ff\LL	.	16aa\LL	.
.	.	.	16aa\	.	16ccc\	.
8F\	.	.	16aa\	.	16ccc\	.
.	.	.	16ff\JJ	.	16aa\JJ	.
8F\	.	.	16ff\LL	.	16aa\LL	.
.	.	.	16aa\	.	16ccc\	.
8F\	.	.	16aa\	.	16ccc\	.
.	.	.	16ff\JJ	.	16aa\JJ	.
8F\	.	.	16ff\LL	.	16aa\LL	.
.	.	.	16aa\	.	16ccc\	.
8F\J	.	.	16aa\	.	16ccc\	.
.	.	.	16ff\JJ	.	16aa\JJ	.
=286	=286	=286	=286	=286	=286	=286
8c\L	.	7 5	16ee\LL	.	16gg\LL	.
.	.	.	16gg\	.	16bb-y\	.
8c\	.	.	16gg\	.	16bb-y\	.
.	.	.	16ee\JJ	.	16gg\JJ	.
8c#X\	.	.	16ee\LL	.	16gg\LL	.
.	.	.	16gg\	.	16bb-y\	.
8c#y\	.	.	16gg\	.	16bb-y\	.
.	.	.	16ee\JJ	.	16gg\JJ	.
8c#y\	.	.	16ee\LL	.	16gg\LL	.
.	.	.	16gg\	.	16bb-y\	.
8c#y\J	.	.	16gg\	.	16bb-y\	.
.	.	.	16ee\JJ	.	16gg\JJ	.
=287	=287	=287	=287	=287	=287	=287
8d\L	.	.	16dd\LL	.	16ff\LL	.
.	.	.	16ff\	.	16aa\	.
8d\	.	.	16ff\	.	16aa\	.
.	.	.	16dd\JJ	.	16ff\JJ	.
8D\	.	.	16dd\LL	.	16ff\LL	.
.	.	.	16ff\	.	16aa\	.
8D\	.	.	16ff\	.	16aa\	.
.	.	.	16dd\JJ	.	16ff\JJ	.
8D\	.	.	16dd\LL	.	16ff\LL	.
.	.	.	16ff\	.	16aa\	.
8D\J	.	.	16ff\	.	16aa\	.
.	.	.	16dd\JJ	.	16ff\JJ	.
!!LO:LB:g=original
=288	=288	=288	=288	=288	=288	=288
8A\L	.	7 #	16cc#X\LL	.	16ee\LL	.
.	.	.	16ee\	.	16gg\	.
8A\	.	.	16ee\	.	16gg\	.
.	.	.	16cc#X\JJ	.	16ee\JJ	.
8A\	.	.	16cc#y\LL	.	16ee\LL	.
.	.	.	16ee\	.	16gg\	.
8A\	.	.	16ee\	.	16gg\	.
.	.	.	16cc#X\JJ	.	16ee\JJ	.
8A\	.	.	16cc#y\LL	.	16ee\LL	.
.	.	.	16ee\	.	16gg\	.
8A\J	.	.	16ee\	.	16gg\	.
.	.	.	16cc#X\JJ	.	16ee\JJ	.
=289	=289	=289	=289	=289	=289	=289
8D\L	.	.	16dd\LL	.	16ff\LL	.
.	.	.	16ff\	.	16aa\	.
8D\	.	.	16ff\	.	16aa\	.
.	.	.	16dd\JJ	.	16ff\JJ	.
8D\	.	.	16dd\LL	.	16ff\LL	.
.	.	.	16ff\	.	16aa\	.
8D\	.	.	16ff\	.	16aa\	.
.	.	.	16dd\JJ	.	16ff\JJ	.
8D\	.	.	16dd\LL	.	16ff\LL	.
.	.	.	16ff\	.	16aa\	.
8D\J	.	.	16ff\	.	16aa\	.
.	.	.	16dd\JJ	.	16ff\JJ	.
=290	=290	=290	=290	=290	=290	=290
8A\L	.	#	16cc#X\LL	.	16ee\LL	.
.	.	.	16ee\	.	16gg\	.
8A\	.	.	16ee\	.	16gg\	.
.	.	.	16cc#X\JJ	.	16ee\JJ	.
8A\	.	.	16cc#y\LL	.	16ee\LL	.
.	.	.	16ee\	.	16gg\	.
8A\	.	.	16ee\	.	16gg\	.
.	.	.	16cc#X\JJ	.	16ee\JJ	.
8A\	.	.	16cc#y\LL	.	16ee\LL	.
.	.	.	16ee\	.	16gg\	.
8A\J	.	.	16ee\	.	16gg\	.
.	.	.	16cc#X\JJ	.	16ee\JJ	.
=291	=291	=291	=291	=291	=291	=291
8D\L	.	.	16dd\LL	.	16ff\LL	.
.	.	.	16ff\	.	16aa\	.
8D\	.	.	16ff\	.	16aa\	.
.	.	.	16dd\JJ	.	16ff\JJ	.
8D\	.	.	16dd\LL	.	16ff\LL	.
.	.	.	16ff\	.	16aa\	.
8D\	.	.	16ff\	.	16aa\	.
.	.	.	16dd\JJ	.	16ff\JJ	.
8D\	.	6	16dd\LL	.	16ff\LL	.
.	.	.	16ff\	.	16bb-y\	.
8D\J	.	.	16ff\	.	16bb-y\	.
.	.	.	16dd\JJ	.	16ff\JJ	.
=292	=292	=292	=292	=292	=292	=292
8C/L	.	7	16ee\LL	.	16gg\LL	.
.	.	.	16gg\	.	16bb-y\	.
8C/	.	.	16gg\	.	16bb-y\	.
.	.	.	16ee\JJ	.	16gg\JJ	.
8C/	.	.	16ee\LL	.	16gg\LL	.
.	.	.	16gg\	.	16bb-y\	.
8C/	.	.	16gg\	.	16bb-y\	.
.	.	.	16ee\JJ	.	16gg\JJ	.
8C/	.	.	16ee\LL	.	16gg\LL	.
.	.	.	16gg\	.	16bb-y\	.
8C/J	.	.	16gg\	.	16bb-y\	.
.	.	.	16ee\JJ	.	16gg\JJ	.
!!LO:LB:g=original
=293	=293	=293	=293	=293	=293	=293
8F\L	.	.	16ff\LL	.	16aa\LL	.
.	.	.	16aa\	.	16ccc\	.
8F\	.	.	16aa\	.	16ccc\	.
.	.	.	16ff\JJ	.	16aa\JJ	.
8F\	.	.	16ff\LL	.	16aa\LL	.
.	.	.	16aa\	.	16ccc\	.
8F\	.	.	16aa\	.	16ccc\	.
.	.	.	16ff\JJ	.	16aa\JJ	.
8F\	.	.	16ff\LL	.	16aa\LL	.
.	.	.	16aa\	.	16ccc\	.
8F\J	.	.	16aa\	.	16ccc\	.
.	.	.	16ff\JJ	.	16aa\JJ	.
=294	=294	=294	=294	=294	=294	=294
8c\L	.	7 5	16ee\LL	.	16gg\LL	.
.	.	.	16gg\	.	16bb-y\	.
8c\	.	.	16gg\	.	16bb-y\	.
.	.	.	16ee\JJ	.	16gg\JJ	.
8c#X\	.	.	16ee\LL	.	16gg\LL	.
.	.	.	16gg\	.	16bb-y\	.
8c#y\	.	.	16gg\	.	16bb-y\	.
.	.	.	16ee\JJ	.	16gg\JJ	.
8c#y\	.	.	16ee\LL	.	16gg\LL	.
.	.	.	16gg\	.	16bb-y\	.
8c#y\J	.	.	16gg\	.	16bb-y\	.
.	.	.	16ee\JJ	.	16gg\JJ	.
=295	=295	=295	=295	=295	=295	=295
8d\L	.	.	16a\LL	.	16ff\LL	.
.	.	.	16ff\	.	16ddd\	.
8D\	.	.	16aa\	.	16ff\	.
.	.	.	16ff\JJ	.	16ddd\JJ	.
8G\	.	6 5	16gg\LL	.	16ee\LL	.
.	.	.	16ee\	.	16ddd\	.
8G\	.	.	16gg\	.	16ee\	.
.	.	.	16ee\JJ	.	16ddd\JJ	.
8A\	.	#	16cc#X\LL	.	16ee\LL	.
.	.	.	16ee\	.	16ccc#X\	.
8A\J	.	.	16cc#y\	.	16ee\	.
.	.	.	16ee\JJ	.	16ccc#X\JJ	.
=296	=296	=296	=296	=296	=296	=296
2.D\;	.	.	2.dd\;	.	2.ddd\;	.
=297||	=297||	=297||	=297||	=297||	=297||	=297||
*>T	*>T	*>T	*>T	*>T	*>T	*>T
!!!OMD: 20.
*MM154	*	*	*MM154	*	*MM154	*
16D\LL	.	.	4dd\	.	4ff\	.
16d\	.	.	.	.	.	.
16d\	.	.	.	.	.	.
16D\JJ	.	.	.	.	.	.
16D\LL	.	.	4d/	.	4f/	.
16d\	.	.	.	.	.	.
16d\	.	.	.	.	.	.
16D\JJ	.	.	.	.	.	.
16D\LL	.	.	4dd\	.	4ff\	.
16d\	.	.	.	.	.	.
16d\	.	.	.	.	.	.
16D\JJ	.	.	.	.	.	.
=298	=298	=298	=298	=298	=298	=298
4AA/	.	7 #	16cc#X\LL	.	16ee\LL	.
.	.	.	16ee\	.	16gg\	.
.	.	.	16ee\	.	16gg\	.
.	.	.	16cc#X\JJ	.	16ee\JJ	.
4A\	.	.	16cc#y\LL	.	16ee\LL	.
.	.	.	16ee\	.	16gg\	.
.	.	.	16ee\	.	16gg\	.
.	.	.	16cc#X\JJ	.	16ee\JJ	.
4AA/	.	.	16cc#y\LL	.	16ee\LL	.
.	.	.	16ee\	.	16gg\	.
.	.	.	16ee\	.	16gg\	.
.	.	.	16cc#X\JJ	.	16ee\JJ	.
!!LO:LB:g=original
=299	=299	=299	=299	=299	=299	=299
16D\LL	.	.	4dd\	.	4ff\	.
16d\	.	.	.	.	.	.
16d\	.	.	.	.	.	.
16D\JJ	.	.	.	.	.	.
16D\LL	.	.	4d/	.	4f/	.
16d\	.	.	.	.	.	.
16d\	.	.	.	.	.	.
16D\JJ	.	.	.	.	.	.
16D\LL	.	6	4dd\	.	4ff\	.
16d\	.	.	.	.	.	.
16d\	.	.	.	.	.	.
16D\JJ	.	.	.	.	.	.
=300	=300	=300	=300	=300	=300	=300
4C/	.	7	16ee\LL	.	16gg\LL	.
.	.	.	16gg\	.	16bb-y\	.
.	.	.	16gg\	.	16bb-y\	.
.	.	.	16ee\JJ	.	16gg\JJ	.
4c\	.	.	16ee\LL	.	16gg\LL	.
.	.	.	16gg\	.	16bb-y\	.
.	.	.	16gg\	.	16bb-y\	.
.	.	.	16ee\JJ	.	16gg\JJ	.
4C/	.	.	16ee\LL	.	16gg\LL	.
.	.	.	16gg\	.	16bb-y\	.
.	.	.	16gg\	.	16bb-y\	.
.	.	.	16ee\JJ	.	16gg\JJ	.
=301	=301	=301	=301	=301	=301	=301
16F\LL	.	.	4ff\	.	4aa\	.
16A\	.	.	.	.	.	.
16A\	.	.	.	.	.	.
16F\JJ	.	.	.	.	.	.
16F\LL	.	.	4f/	.	4a/	.
16A\	.	.	.	.	.	.
16A\	.	.	.	.	.	.
16F\JJ	.	.	.	.	.	.
16F\LL	.	.	4ff\	.	4aa\	.
16A\	.	.	.	.	.	.
16A\	.	.	.	.	.	.
16F\JJ	.	.	.	.	.	.
=302	=302	=302	=302	=302	=302	=302
4C/	.	7 5	16ee\LL	.	16gg\LL	.
.	.	.	16gg\	.	16bb-y\	.
.	.	.	16gg\	.	16bb-y\	.
.	.	.	16ee\JJ	.	16gg\JJ	.
4.C#X/	.	.	16ee\LL	.	16gg\LL	.
.	.	.	16gg\	.	16bb-y\	.
.	.	.	16gg\	.	16bb-y\	.
.	.	.	16ee\JJ	.	16gg\JJ	.
.	.	.	16ee\LL	.	16gg\LL	.
.	.	.	16gg\	.	16bb-y\	.
8C#y/	.	.	16gg\	.	16bb-y\	.
.	.	.	16ee\JJ	.	16gg\JJ	.
=303	=303	=303	=303	=303	=303	=303
16D\LL	.	.	4dd\	.	4ff\	.
16d\	.	.	.	.	.	.
16d\	.	.	.	.	.	.
16D\JJ	.	.	.	.	.	.
16D\LL	.	.	4d/	.	4f/	.
16d\	.	.	.	.	.	.
16d\	.	.	.	.	.	.
16D\JJ	.	.	.	.	.	.
16D\LL	.	.	4dd\	.	4ff\	.
16d\	.	.	.	.	.	.
16d\	.	.	.	.	.	.
16D\JJ	.	.	.	.	.	.
!!LO:PB:g=original
=304	=304	=304	=304	=304	=304	=304
4AA/	.	7 #	16cc#X\LL	.	16ee\LL	.
.	.	.	16ee\	.	16gg\	.
.	.	.	16ee\	.	16gg\	.
.	.	.	16cc#X\JJ	.	16ee\JJ	.
4A\	.	.	16cc#y\LL	.	16ee\LL	.
.	.	.	16ee\	.	16gg\	.
.	.	.	16ee\	.	16gg\	.
.	.	.	16cc#X\JJ	.	16ee\JJ	.
4AA/	.	.	16cc#y\LL	.	16ee\LL	.
.	.	.	16ee\	.	16gg\	.
.	.	.	16ee\	.	16gg\	.
.	.	.	16cc#X\JJ	.	16ee\JJ	.
=305	=305	=305	=305	=305	=305	=305
16D\LL	.	.	4dd\	.	4ff\	.
16d\	.	.	.	.	.	.
16d\	.	.	.	.	.	.
16D\JJ	.	.	.	.	.	.
16D\LL	.	.	4d/	.	4f/	.
16d\	.	.	.	.	.	.
16d\	.	.	.	.	.	.
16D\JJ	.	.	.	.	.	.
16D\LL	.	.	4dd\	.	4ff\	.
16d\	.	.	.	.	.	.
16d\	.	.	.	.	.	.
16D\JJ	.	.	.	.	.	.
=306	=306	=306	=306	=306	=306	=306
4AA/	.	7 #	16cc#X\LL	.	16ee\LL	.
.	.	.	16ee\	.	16gg\	.
.	.	.	16ee\	.	16gg\	.
.	.	.	16cc#X\JJ	.	16ee\JJ	.
4A\	.	.	16cc#y\LL	.	16ee\LL	.
.	.	.	16ee\	.	16gg\	.
.	.	.	16ee\	.	16gg\	.
.	.	.	16cc#X\JJ	.	16ee\JJ	.
4AA/	.	.	16cc#y\LL	.	16ee\LL	.
.	.	.	16ee\	.	16gg\	.
.	.	.	16ee\	.	16gg\	.
.	.	.	16cc#X\JJ	.	16ee\JJ	.
=307	=307	=307	=307	=307	=307	=307
16D\LL	.	.	4dd\	.	4ff\	.
16d\	.	.	.	.	.	.
16d\	.	.	.	.	.	.
16D\JJ	.	.	.	.	.	.
16D\LL	.	.	4d/	.	4f/	.
16d\	.	.	.	.	.	.
16d\	.	.	.	.	.	.
16D\JJ	.	.	.	.	.	.
16D\LL	.	6	4dd\	.	4ff\	.
16d\	.	.	.	.	.	.
16d\	.	.	.	.	.	.
16D\JJ	.	.	.	.	.	.
=308	=308	=308	=308	=308	=308	=308
4C/	.	7	16ee\LL	.	16gg\LL	.
.	.	.	16gg\	.	16bb-y\	.
.	.	.	16gg\	.	16bb-y\	.
.	.	.	16ee\JJ	.	16gg\JJ	.
4c\	.	.	16ee\LL	.	16gg\LL	.
.	.	.	16gg\	.	16bb-y\	.
.	.	.	16gg\	.	16bb-y\	.
.	.	.	16ee\JJ	.	16gg\JJ	.
4C/	.	.	16ee\LL	.	16gg\LL	.
.	.	.	16gg\	.	16bb-y\	.
.	.	.	16gg\	.	16bb-y\	.
.	.	.	16ee\JJ	.	16gg\JJ	.
!!LO:LB:g=original
=309	=309	=309	=309	=309	=309	=309
16F\LL	.	.	4ff\	.	4aa\	.
16A\	.	.	.	.	.	.
16A\	.	.	.	.	.	.
16F\JJ	.	.	.	.	.	.
16F\LL	.	.	4f/	.	4a/	.
16A\	.	.	.	.	.	.
16A\	.	.	.	.	.	.
16F\JJ	.	.	.	.	.	.
16F\LL	.	.	4ff\	.	4aa\	.
16A\	.	.	.	.	.	.
16A\	.	.	.	.	.	.
16F\JJ	.	.	.	.	.	.
=310	=310	=310	=310	=310	=310	=310
4C/	.	7 5	16ee\LL	.	16gg\LL	.
.	.	.	16gg\	.	16bb-y\	.
.	.	.	16gg\	.	16bb-y\	.
.	.	.	16ee\JJ	.	16gg\JJ	.
4.C#X/	.	.	16ee\LL	.	16gg\LL	.
.	.	.	16gg\	.	16bb-y\	.
.	.	.	16gg\	.	16bb-y\	.
.	.	.	16ee\JJ	.	16gg\JJ	.
.	.	.	16ee\LL	.	16gg\LL	.
.	.	.	16gg\	.	16bb-y\	.
8C#y/	.	.	16gg\	.	16bb-y\	.
.	.	.	16ee\JJ	.	16gg\JJ	.
=311	=311	=311	=311	=311	=311	=311
4D\	.	.	16a\LL	.	16ff\LL	.
.	.	.	16ff\	.	16ddd\	.
.	.	.	16aa\	.	16ff\	.
.	.	.	16ff\JJ	.	16ddd\JJ	.
4A\	.	5 4	16ee\LL	.	16ee\LL	.
.	.	.	16gg\	.	16ddd\	.
.	.	.	16ee\	.	16ee\	.
.	.	.	16gg\JJ	.	16ddd\JJ	.
4AA/	.	#	16cc#X\LL	.	16ee\LL	.
.	.	.	16ee\	.	16ccc#X\	.
.	.	.	16cc#X\	.	16ee\	.
.	.	.	16ee\JJ	.	16ccc#y\JJ	.
=312	=312	=312	=312	=312	=312	=312
2.D\	.	.	2.dd\	.	2.ddd\	.
=313	=313	=313	=313	=313	=313	=313
16D\LL	.	.	4dd\	.	4ff\	.
16d\	.	.	.	.	.	.
16d\	.	.	.	.	.	.
16D\JJ	.	.	.	.	.	.
16D\LL	.	.	4.dd\	.	4.ff\	.
16d\	.	.	.	.	.	.
16d\	.	.	.	.	.	.
16D\JJ	.	.	.	.	.	.
16D\LL	.	.	.	.	.	.
16d\	.	.	.	.	.	.
16d\	.	.	8dd\	.	8ff\	.
16D\JJ	.	.	.	.	.	.
=314	=314	=314	=314	=314	=314	=314
16GG/LL	.	6 5	4dd\	.	4ee\	.
16G/	.	.	.	.	.	.
16G/	.	.	.	.	.	.
16GG/JJ	.	.	.	.	.	.
16GG/LL	.	.	4.dd\	.	4.ee\	.
16G/	.	.	.	.	.	.
16G/	.	.	.	.	.	.
16GG/JJ	.	.	.	.	.	.
16GG/LL	.	.	.	.	.	.
16G/	.	.	.	.	.	.
16G/	.	.	8dd\	.	8ee\	.
16GG/JJ	.	.	.	.	.	.
!!LO:LB:g=original
=315	=315	=315	=315	=315	=315	=315
16AA\LL	.	#	4cc#X\	.	4ee\	.
16A\	.	.	.	.	.	.
16A\	.	.	.	.	.	.
16AA\JJ	.	.	.	.	.	.
16AA\LL	.	.	4.cc#y\	.	4.ee\	.
16A\	.	.	.	.	.	.
16A\	.	.	.	.	.	.
16AA\JJ	.	.	.	.	.	.
16AA\LL	.	.	.	.	.	.
16A\	.	.	.	.	.	.
16A\	.	.	8cc#y\	.	8ee\	.
16AA\JJ	.	.	.	.	.	.
=316	=316	=316	=316	=316	=316	=316
4D\	.	.	4dd\	.	4dd\	.
4r	.	.	4r	.	4r	.
4r	.	.	4r	.	4r	.
=317	=317	=317	=317	=317	=317	=317
16D\LL	p	.	4d/	p	4f/	p
16d\	.	.	.	.	.	.
16d\	.	.	.	.	.	.
16D\JJ	.	.	.	.	.	.
16D\LL	.	.	4.d/	.	4.f/	.
16d\	.	.	.	.	.	.
16d\	.	.	.	.	.	.
16D\JJ	.	.	.	.	.	.
16D\LL	.	.	.	.	.	.
16d\	.	.	.	.	.	.
16d\	.	.	8d/	.	8f/	.
16D\JJ	.	.	.	.	.	.
=318	=318	=318	=318	=318	=318	=318
16GG/LL	.	6 5	4d/	.	4e/	.
16G/	.	.	.	.	.	.
16G/	.	.	.	.	.	.
16GG/JJ	.	.	.	.	.	.
16GG/LL	.	.	4.d/	.	4.e/	.
16G/	.	.	.	.	.	.
16G/	.	.	.	.	.	.
16GG/JJ	.	.	.	.	.	.
16GG/LL	.	.	.	.	.	.
16G/	.	.	.	.	.	.
16G/	.	.	8d/	.	8e/	.
16GG/JJ	.	.	.	.	.	.
=319	=319	=319	=319	=319	=319	=319
16AA\LL	.	#	4c#X/	.	4e/	.
16A\	.	.	.	.	.	.
16A\	.	.	.	.	.	.
16AA\JJ	.	.	.	.	.	.
16AA\LL	.	.	4.c#y/	.	4.e/	.
16A\	.	.	.	.	.	.
16A\	.	.	.	.	.	.
16AA\JJ	.	.	.	.	.	.
16AA\LL	.	.	.	.	.	.
16A\	.	.	.	.	.	.
16A\	.	.	8c#y/	.	8e/	.
16AA\JJ	.	.	.	.	.	.
=320	=320	=320	=320	=320	=320	=320
2.D\;	.	.	2.d/;	.	2.d/;	.
==	==	==	==	==	==	==
*-	*-	*-	*-	*-	*-	*-
!!!SMS: RV 63 / Estienne Roger (No. 363), Amsterdam [facs.]
!!!ENC: Fran Bennion   rev. 05/19/21 E Correia
!!!END: 2004/11/03
!!!ONB: Converted from MuseData with musedata2hum on Sat May 11 12:01:58 2024
!!!YEM: (C) 2004, 2019 Center for Computer Assisted Research in the Humanities
!!!system-decoration: [(s1,s2,s3)]
!!!URL-info: https://wiki.ccarh.org/wiki/MuseData:_Antonio_Vivaldi#Op._1:_Suonate_da_camera_a_tr.C3.A8.2C_due_violini_e_violone_o_cembalo Information about Op. 1 on the CCARH wiki
!!!URL-pdf: https://pdf.musedata.org/vivaldi-op01-no12.pdf#page=1 MuseData edition
!!!URL-pdf: https://s9.imslp.org/files/imglnks/usimg/1/18/IMSLP280399-PMLP10351-Vivaldi_Sonatas_Op_1_-_Violino_Primo.pdf#page=20 Violino primo part, Amsterdam: Estienne Roger, n.d.(ca.1723). Plate 363.
!!!URL-pdf: https://s9.imslp.org/files/imglnks/usimg/d/d5/IMSLP280400-PMLP10351-Vivaldi_Sonatas_Op_1_-_Violino_Secondo.pdf#page=16 Violino secondo part, Amsterdam: Estienne Roger, n.d.(ca.1723). Plate 363.
!!!URL-pdf: https://s9.imslp.org/files/imglnks/usimg/8/89/IMSLP280401-PMLP10351-Vivaldi_Sonatas_Op_1_-_Organo_e_Violoncello.pdf#page=16 Organo e Violoncello parts, Amsterdam: Estienne Roger, n.d.(ca.1723). Plate 363.
!!!URL-youtube: https://www.youtube.com/watch?v=P5HHPe_W6Uo&t=2031s L'Arte dell'Arco
!!!URL-youtube: https://www.youtube.com/watch?v=hyqan5fcOkA&t=3s Rome Chamber Music Festival (2021)
!!!title: @{OTL}
!!!filter-vcross: vcross
!!!EEV: 2024/05/11
!!!source-file: https://bitbucket.org/musedata/vivaldi/src/master/roger/op1/no12/stage2/01/01
!!!source-file: https://bitbucket.org/musedata/vivaldi/src/master/roger/op1/no12/stage2/01/02
!!!source-file: https://bitbucket.org/musedata/vivaldi/src/master/roger/op1/no12/stage2/01/03
!!!source-file: https://bitbucket.org/musedata/vivaldi/src/master/roger/op1/no12/stage2/01/04
